;FilamentType:PLA
;MachineType:MP Cadet
;Extruder0Temperature:200
;BedTemperature:40
;InfillDensity:10
;FLAVOR:Marlin
;TIME:3592
;FilamentUsed: 2283.67
;Layer height: 0.15
;MINX:1.743
;MINY:7.691
;MINZ:0.3
;MAXX:98.071
;MAXY:117.203
;MAXZ:15
;Generated with Cura_SteamEngine 4.3.0
M82 ;absolute extrusion mode
;(**** start.gcode for Cadet****)
M104 S150
G28 Z
G28 X Y; Home extruder
G1 X55 Y55 F1000
G1 Z10 F200
G29
G1 Z15 F100
M107 ; Turn off fan
G90 ; Absolute positioning
M82 ; Extruder in absolute mode
M109 S215
G92 E0 ; Reset extruder position
G1 X90 Y6 Z0.27 F2000
G1 X20 Y6 Z0.27 E15 F1000 
G92 E0 ; Reset extruder position

M203 Z5
G92 E0
G92 E0
G1 F2100 E-3
;LAYER_COUNT:99
;LAYER:0
M107
G0 F3600 X71.388 Y53.121 Z0.3
;TYPE:SKIRT
G1 F2100 E0
G1 F1800 X72.074 Y53.51 E0.03738
G1 X72.719 Y53.967 E0.07484
G1 X73.313 Y54.487 E0.11226
G1 X73.852 Y55.064 E0.14968
G1 X74.33 Y55.693 E0.18713
G1 X74.644 Y56.192 E0.21507
G1 X97.027 Y94.961 E2.33681
G1 X97.387 Y95.664 E2.37424
G1 X97.674 Y96.4 E2.41168
G1 X97.884 Y97.161 E2.4491
G1 X98.017 Y97.939 E2.48651
G1 X98.071 Y98.727 E2.52394
G1 X98.044 Y99.516 E2.56136
G1 X97.938 Y100.299 E2.59881
G1 X97.805 Y100.885 E2.62729
G1 X97.762 Y101.045 E2.63514
G1 X97.518 Y101.797 E2.67261
G1 X97.2 Y102.52 E2.71005
G1 X96.811 Y103.206 E2.74742
G1 X96.354 Y103.851 E2.78489
G1 X95.834 Y104.445 E2.82231
G1 X95.257 Y104.984 E2.85973
G1 X94.628 Y105.462 E2.89717
G1 X94.129 Y105.776 E2.92512
G1 X76.145 Y116.159 E3.90934
G1 X75.442 Y116.519 E3.94677
G1 X74.706 Y116.806 E3.98421
G1 X73.945 Y117.016 E4.02163
G1 X73.167 Y117.149 E4.05904
G1 X72.379 Y117.203 E4.09648
G1 X71.59 Y117.176 E4.13389
G1 X70.807 Y117.07 E4.17134
G1 X70.221 Y116.937 E4.19982
G1 X70.061 Y116.894 E4.20767
G1 X69.309 Y116.65 E4.24515
G1 X68.586 Y116.332 E4.28258
G1 X67.9 Y115.943 E4.31996
G1 X67.255 Y115.486 E4.35742
G1 X66.661 Y114.966 E4.39484
G1 X66.122 Y114.389 E4.43226
G1 X65.644 Y113.76 E4.46971
G1 X65.33 Y113.261 E4.49765
G1 X47.289 Y82.012 E6.20782
G1 X45.485 Y83.054 E6.30656
G1 X44.782 Y83.414 E6.344
G1 X44.047 Y83.7 E6.38138
G1 X43.286 Y83.911 E6.41881
G1 X42.507 Y84.044 E6.45626
G1 X41.719 Y84.098 E6.4937
G1 X40.93 Y84.071 E6.53112
G1 X40.148 Y83.965 E6.56852
G1 X39.561 Y83.832 E6.59704
G1 X39.401 Y83.789 E6.6049
G1 X38.649 Y83.545 E6.64237
G1 X37.926 Y83.227 E6.6798
G1 X37.24 Y82.838 E6.71718
G1 X36.595 Y82.381 E6.75465
G1 X36.001 Y81.861 E6.79206
G1 X35.462 Y81.284 E6.82949
G1 X34.984 Y80.655 E6.86693
G1 X34.67 Y80.156 E6.89487
G1 X6.293 Y31.005 E9.58479
G1 X2.787 Y24.933 E9.91711
G1 X2.427 Y24.23 E9.95454
G1 X2.14 Y23.494 E9.99198
G1 X1.93 Y22.733 E10.0294
G1 X1.797 Y21.955 E10.06681
G1 X1.743 Y21.167 E10.10424
G1 X1.77 Y20.378 E10.14166
G1 X1.876 Y19.595 E10.17911
G1 X2.009 Y19.009 E10.20759
G1 X2.052 Y18.849 E10.21544
G1 X2.296 Y18.097 E10.25291
G1 X2.614 Y17.374 E10.29035
G1 X3.003 Y16.688 E10.32772
G1 X3.46 Y16.043 E10.36519
G1 X3.98 Y15.449 E10.40261
G1 X4.557 Y14.91 E10.44003
G1 X5.186 Y14.432 E10.47747
G1 X5.685 Y14.118 E10.50542
G1 X15.009 Y8.735 E11.01569
G1 X15.712 Y8.375 E11.05313
G1 X16.448 Y8.088 E11.09057
G1 X17.209 Y7.878 E11.12799
G1 X17.987 Y7.745 E11.16539
G1 X18.775 Y7.691 E11.20283
G1 X19.564 Y7.718 E11.24025
G1 X20.347 Y7.824 E11.2777
G1 X20.933 Y7.957 E11.30618
G1 X21.093 Y8 E11.31403
G1 X21.845 Y8.244 E11.3515
G1 X22.568 Y8.562 E11.38893
G1 X23.254 Y8.951 E11.42631
G1 X23.899 Y9.408 E11.46378
G1 X24.493 Y9.928 E11.50119
G1 X25.032 Y10.505 E11.53862
G1 X25.51 Y11.134 E11.57606
G1 X25.824 Y11.633 E11.604
G1 X47.707 Y49.536 E13.67835
G1 X48.067 Y50.239 E13.71578
G1 X48.354 Y50.975 E13.75322
G1 X48.564 Y51.736 E13.79064
G1 X48.697 Y52.514 E13.82805
G1 X48.751 Y53.302 E13.86548
G1 X48.724 Y54.091 E13.9029
G1 X48.618 Y54.874 E13.94035
G1 X48.485 Y55.46 E13.96883
G1 X48.442 Y55.62 E13.97668
G1 X48.198 Y56.372 E14.01415
G1 X47.88 Y57.095 E14.05159
G1 X47.491 Y57.781 E14.08896
G1 X47.034 Y58.426 E14.12643
G1 X46.514 Y59.02 E14.16385
G1 X45.937 Y59.559 E14.20127
G1 X45.308 Y60.037 E14.23871
G1 X44.809 Y60.351 E14.26666
G1 X43.005 Y61.392 E14.36537
G1 X44.705 Y64.336 E14.5265
G1 X46.509 Y63.294 E14.62524
G1 X47.212 Y62.934 E14.66267
G1 X47.947 Y62.648 E14.70005
G1 X48.708 Y62.437 E14.73748
G1 X49.487 Y62.304 E14.77494
G1 X50.275 Y62.25 E14.81237
G1 X51.064 Y62.277 E14.84979
G1 X51.846 Y62.383 E14.88719
G1 X52.433 Y62.516 E14.91572
G1 X52.593 Y62.559 E14.92357
G1 X53.345 Y62.803 E14.96104
G1 X54.068 Y63.121 E14.99848
G1 X54.754 Y63.51 E15.03585
G1 X55.399 Y63.967 E15.07332
G1 X55.993 Y64.487 E15.11074
G1 X56.532 Y65.064 E15.14816
G1 X57.01 Y65.693 E15.1856
G1 X57.324 Y66.192 E15.21354
G1 X75.365 Y97.441 E16.92372
G1 X78.309 Y95.741 E17.08485
G1 X60.267 Y64.492 E18.79504
G1 X59.907 Y63.789 E18.83248
G1 X59.621 Y63.053 E18.8699
G1 X59.41 Y62.292 E18.90733
G1 X59.277 Y61.514 E18.94474
G1 X59.223 Y60.726 E18.98218
G1 X59.25 Y59.937 E19.01959
G1 X59.356 Y59.154 E19.05704
G1 X59.489 Y58.568 E19.08552
G1 X59.532 Y58.408 E19.09337
G1 X59.776 Y57.656 E19.13085
G1 X60.094 Y56.933 E19.16828
G1 X60.483 Y56.247 E19.20566
G1 X60.94 Y55.602 E19.24312
G1 X61.46 Y55.008 E19.28054
G1 X62.037 Y54.469 E19.31796
G1 X62.666 Y53.991 E19.35541
G1 X63.168 Y53.675 E19.38352
G1 X63.832 Y53.292 E19.41985
G1 X64.535 Y52.933 E19.45726
G1 X65.271 Y52.646 E19.49471
G1 X66.032 Y52.436 E19.53212
G1 X66.81 Y52.303 E19.56953
G1 X67.598 Y52.25 E19.60696
G1 X68.387 Y52.277 E19.64438
G1 X69.17 Y52.383 E19.68183
G1 X69.753 Y52.516 E19.71017
G1 X69.913 Y52.559 E19.71802
G1 X70.665 Y52.803 E19.75549
G1 X71.388 Y53.121 E19.79293
G0 F3600 X71.244 Y53.496
G1 F1800 X71.91 Y53.88 E19.82937
G1 X72.533 Y54.331 E19.86582
G1 X73.106 Y54.844 E19.90227
G1 X73.623 Y55.414 E19.93874
G1 X74.077 Y56.035 E19.9752
G1 X74.298 Y56.392 E19.9951
G1 X96.681 Y95.161 E22.11684
G1 X97.03 Y95.846 E22.15328
G1 X97.306 Y96.564 E22.18973
G1 X97.507 Y97.307 E22.22621
G1 X97.629 Y98.066 E22.26265
G1 X97.672 Y98.834 E22.29911
G1 X97.635 Y99.602 E22.33555
G1 X97.518 Y100.362 E22.37199
G1 X97.418 Y100.782 E22.39246
G1 X97.375 Y100.942 E22.40031
G1 X97.137 Y101.673 E22.43674
G1 X96.825 Y102.376 E22.4732
G1 X96.441 Y103.042 E22.50963
G1 X95.99 Y103.665 E22.54609
G1 X95.477 Y104.238 E22.58254
G1 X94.907 Y104.755 E22.61901
G1 X94.286 Y105.209 E22.65547
G1 X93.929 Y105.43 E22.67537
G1 X75.945 Y115.813 E23.65959
G1 X75.26 Y116.162 E23.69603
G1 X74.542 Y116.438 E23.73249
G1 X73.799 Y116.639 E23.76897
G1 X73.04 Y116.761 E23.8054
G1 X72.272 Y116.804 E23.84186
G1 X71.504 Y116.767 E23.8783
G1 X70.744 Y116.65 E23.91475
G1 X70.324 Y116.55 E23.93521
G1 X70.164 Y116.507 E23.94306
G1 X69.433 Y116.269 E23.9795
G1 X68.73 Y115.957 E24.01595
G1 X68.064 Y115.573 E24.05239
G1 X67.441 Y115.122 E24.08884
G1 X66.868 Y114.609 E24.12529
G1 X66.351 Y114.039 E24.16177
G1 X65.897 Y113.418 E24.19823
G1 X65.676 Y113.061 E24.21813
G1 X47.435 Y81.466 E25.94724
G1 X45.285 Y82.707 E26.0649
G1 X44.6 Y83.057 E26.10136
G1 X43.882 Y83.333 E26.13782
G1 X43.14 Y83.534 E26.17425
G1 X42.38 Y83.656 E26.21073
G1 X41.612 Y83.699 E26.24719
G1 X40.844 Y83.662 E26.28363
G1 X40.084 Y83.545 E26.32008
G1 X39.664 Y83.445 E26.34054
G1 X39.504 Y83.402 E26.34839
G1 X38.773 Y83.164 E26.38483
G1 X38.07 Y82.852 E26.42128
G1 X37.404 Y82.468 E26.45772
G1 X36.781 Y82.017 E26.49417
G1 X36.208 Y81.504 E26.53062
G1 X35.691 Y80.934 E26.5671
G1 X35.237 Y80.313 E26.60356
G1 X35.016 Y79.956 E26.62346
G1 X6.639 Y30.805 E29.31337
G1 X3.133 Y24.733 E29.64569
G1 X2.784 Y24.048 E29.68213
G1 X2.508 Y23.33 E29.71858
G1 X2.307 Y22.587 E29.75507
G1 X2.185 Y21.828 E29.7915
G1 X2.142 Y21.06 E29.82796
G1 X2.179 Y20.292 E29.8644
G1 X2.296 Y19.532 E29.90084
G1 X2.396 Y19.112 E29.92131
G1 X2.439 Y18.952 E29.92916
G1 X2.677 Y18.221 E29.9656
G1 X2.989 Y17.518 E30.00205
G1 X3.373 Y16.852 E30.03849
G1 X3.824 Y16.229 E30.07494
G1 X4.337 Y15.656 E30.11139
G1 X4.907 Y15.139 E30.14786
G1 X5.528 Y14.685 E30.18432
G1 X5.885 Y14.464 E30.20422
G1 X15.209 Y9.081 E30.7145
G1 X15.894 Y8.732 E30.75094
G1 X16.612 Y8.456 E30.78739
G1 X17.355 Y8.255 E30.82387
G1 X18.114 Y8.133 E30.86031
G1 X18.882 Y8.09 E30.89677
G1 X19.65 Y8.127 E30.93321
G1 X20.411 Y8.244 E30.9697
G1 X20.83 Y8.344 E30.99012
G1 X20.99 Y8.387 E30.99797
G1 X21.721 Y8.625 E31.03441
G1 X22.424 Y8.937 E31.07086
G1 X23.09 Y9.321 E31.1073
G1 X23.713 Y9.772 E31.14375
G1 X24.286 Y10.285 E31.1802
G1 X24.803 Y10.855 E31.21667
G1 X25.257 Y11.476 E31.25313
G1 X25.478 Y11.833 E31.27303
G1 X47.361 Y49.736 E33.34737
G1 X47.71 Y50.421 E33.38381
G1 X47.986 Y51.139 E33.42027
G1 X48.187 Y51.882 E33.45675
G1 X48.309 Y52.641 E33.49318
G1 X48.352 Y53.409 E33.52964
G1 X48.315 Y54.177 E33.56608
G1 X48.198 Y54.937 E33.60253
G1 X48.098 Y55.357 E33.62299
G1 X48.055 Y55.517 E33.63084
G1 X47.817 Y56.248 E33.66728
G1 X47.505 Y56.951 E33.70373
G1 X47.121 Y57.617 E33.74017
G1 X46.67 Y58.24 E33.77662
G1 X46.157 Y58.813 E33.81307
G1 X45.587 Y59.33 E33.84955
G1 X44.966 Y59.784 E33.88601
G1 X44.609 Y60.005 E33.90591
G1 X42.459 Y61.246 E34.02356
G1 X44.559 Y64.882 E34.22257
G1 X46.709 Y63.641 E34.34023
G1 X47.394 Y63.291 E34.37669
G1 X48.112 Y63.015 E34.41315
G1 X48.854 Y62.814 E34.44958
G1 X49.614 Y62.692 E34.48606
G1 X50.382 Y62.649 E34.52252
G1 X51.15 Y62.686 E34.55896
G1 X51.91 Y62.803 E34.59541
G1 X52.33 Y62.903 E34.61587
G1 X52.49 Y62.946 E34.62372
G1 X53.221 Y63.184 E34.66016
G1 X53.924 Y63.496 E34.69661
G1 X54.59 Y63.88 E34.73305
G1 X55.213 Y64.331 E34.7695
G1 X55.786 Y64.844 E34.80595
G1 X56.303 Y65.414 E34.84242
G1 X56.757 Y66.035 E34.87888
G1 X56.978 Y66.392 E34.89878
G1 X75.219 Y97.987 E36.6279
G1 X78.855 Y95.887 E36.82691
G1 X60.613 Y64.292 E38.55605
G1 X60.264 Y63.607 E38.59249
G1 X59.988 Y62.889 E38.62894
G1 X59.787 Y62.147 E38.66538
G1 X59.665 Y61.387 E38.70186
G1 X59.622 Y60.619 E38.73832
G1 X59.659 Y59.851 E38.77476
G1 X59.776 Y59.091 E38.81121
G1 X59.876 Y58.671 E38.83167
G1 X59.919 Y58.511 E38.83952
G1 X60.157 Y57.78 E38.87596
G1 X60.469 Y57.077 E38.91241
G1 X60.853 Y56.411 E38.94885
G1 X61.304 Y55.788 E38.9853
G1 X61.817 Y55.215 E39.02175
G1 X62.387 Y54.698 E39.05822
G1 X63.008 Y54.244 E39.09468
G1 X63.368 Y54.022 E39.11473
G1 X64.032 Y53.639 E39.15106
G1 X64.717 Y53.29 E39.1875
G1 X65.435 Y53.014 E39.22395
G1 X66.177 Y52.813 E39.26039
G1 X66.937 Y52.692 E39.29686
G1 X67.705 Y52.649 E39.33332
G1 X68.473 Y52.687 E39.36976
G1 X69.233 Y52.804 E39.40621
G1 X69.65 Y52.903 E39.42652
G1 X69.81 Y52.946 E39.43438
G1 X70.541 Y53.184 E39.47081
G1 X71.244 Y53.496 E39.50726
G0 F3600 X71.099 Y53.871
G1 F1800 X71.744 Y54.249 E39.5427
G1 X72.346 Y54.694 E39.57818
G1 X72.896 Y55.201 E39.61363
G1 X73.39 Y55.763 E39.6491
G1 X73.951 Y56.592 E39.69654
G1 X96.334 Y95.361 E41.81828
G1 X96.673 Y96.028 E41.85374
G1 X96.939 Y96.727 E41.88918
G1 X97.128 Y97.451 E41.92465
G1 X97.24 Y98.191 E41.96012
G1 X97.272 Y98.938 E41.99556
G1 X97.223 Y99.684 E42.03099
G1 X97.032 Y100.678 E42.07896
G1 X96.989 Y100.838 E42.08682
G1 X96.757 Y101.549 E42.12226
G1 X96.45 Y102.231 E42.15771
G1 X96.072 Y102.876 E42.19314
G1 X95.627 Y103.478 E42.22863
G1 X95.12 Y104.028 E42.26408
G1 X94.558 Y104.522 E42.29954
G1 X93.729 Y105.083 E42.34699
G1 X75.745 Y115.466 E43.33121
G1 X75.078 Y115.805 E43.36667
G1 X74.379 Y116.071 E43.40212
G1 X73.655 Y116.26 E43.43758
G1 X72.915 Y116.372 E43.47305
G1 X72.168 Y116.404 E43.50849
G1 X71.422 Y116.355 E43.54393
G1 X70.428 Y116.164 E43.5919
G1 X70.268 Y116.121 E43.59975
G1 X69.557 Y115.889 E43.6352
G1 X68.875 Y115.582 E43.67065
G1 X68.23 Y115.204 E43.70608
G1 X67.628 Y114.759 E43.74156
G1 X67.078 Y114.252 E43.77701
G1 X66.584 Y113.69 E43.81248
G1 X66.023 Y112.861 E43.85992
G1 X47.582 Y80.919 E45.60802
G1 X45.085 Y82.361 E45.74468
G1 X44.418 Y82.7 E45.78014
G1 X43.719 Y82.966 E45.81559
G1 X42.995 Y83.155 E45.85106
G1 X42.256 Y83.267 E45.88648
G1 X41.508 Y83.299 E45.92197
G1 X40.762 Y83.25 E45.9574
G1 X39.768 Y83.059 E46.00537
G1 X39.608 Y83.016 E46.01322
G1 X38.897 Y82.784 E46.04867
G1 X38.215 Y82.477 E46.08412
G1 X37.57 Y82.099 E46.11955
G1 X36.968 Y81.654 E46.15503
G1 X36.418 Y81.147 E46.19049
G1 X35.924 Y80.585 E46.22595
G1 X35.363 Y79.756 E46.27339
G1 X6.986 Y30.605 E48.96331
G1 X3.48 Y24.533 E49.29563
G1 X3.141 Y23.866 E49.33109
G1 X2.875 Y23.167 E49.36654
G1 X2.686 Y22.443 E49.402
G1 X2.574 Y21.703 E49.43747
G1 X2.542 Y20.956 E49.47291
G1 X2.591 Y20.21 E49.50834
G1 X2.782 Y19.216 E49.55632
G1 X2.825 Y19.056 E49.56417
G1 X3.057 Y18.345 E49.59962
G1 X3.364 Y17.663 E49.63506
G1 X3.742 Y17.018 E49.6705
G1 X4.187 Y16.416 E49.70598
G1 X4.694 Y15.866 E49.74143
G1 X5.256 Y15.372 E49.7769
G1 X6.085 Y14.811 E49.82434
G1 X15.409 Y9.428 E50.33462
G1 X16.076 Y9.089 E50.37008
G1 X16.775 Y8.823 E50.40552
G1 X17.499 Y8.633 E50.441
G1 X18.239 Y8.522 E50.47647
G1 X18.986 Y8.49 E50.5119
G1 X19.733 Y8.539 E50.54738
G1 X20.726 Y8.73 E50.59531
G1 X20.886 Y8.773 E50.60316
G1 X21.597 Y9.005 E50.63861
G1 X22.279 Y9.312 E50.67406
G1 X22.924 Y9.69 E50.70949
G1 X23.526 Y10.135 E50.74497
G1 X24.076 Y10.642 E50.78043
G1 X24.57 Y11.204 E50.81589
G1 X25.131 Y12.033 E50.86333
G1 X47.014 Y49.936 E52.93767
G1 X47.353 Y50.603 E52.97313
G1 X47.619 Y51.302 E53.00858
G1 X47.808 Y52.026 E53.04405
G1 X47.92 Y52.766 E53.07952
G1 X47.952 Y53.513 E53.11496
G1 X47.903 Y54.259 E53.15039
G1 X47.712 Y55.253 E53.19836
G1 X47.669 Y55.413 E53.20621
G1 X47.437 Y56.124 E53.24166
G1 X47.13 Y56.806 E53.27711
G1 X46.752 Y57.451 E53.31254
G1 X46.307 Y58.053 E53.34802
G1 X45.8 Y58.603 E53.38348
G1 X45.238 Y59.097 E53.41894
G1 X44.409 Y59.658 E53.46638
G1 X41.912 Y61.099 E53.60302
G1 X44.412 Y65.429 E53.84
G1 X46.909 Y63.987 E53.97666
G1 X47.576 Y63.648 E54.01212
G1 X48.275 Y63.382 E54.04757
G1 X48.999 Y63.193 E54.08303
G1 X49.738 Y63.081 E54.11846
G1 X50.486 Y63.049 E54.15394
G1 X51.232 Y63.098 E54.18938
G1 X52.226 Y63.289 E54.23735
G1 X52.386 Y63.332 E54.2452
G1 X53.097 Y63.564 E54.28065
G1 X53.779 Y63.871 E54.3161
G1 X54.424 Y64.249 E54.35153
G1 X55.026 Y64.694 E54.38701
G1 X55.576 Y65.201 E54.42247
G1 X56.07 Y65.763 E54.45793
G1 X56.631 Y66.592 E54.50537
G1 X75.072 Y98.534 E56.25347
G1 X79.402 Y96.034 E56.49044
G1 X60.96 Y64.092 E58.23857
G1 X60.621 Y63.425 E58.27403
G1 X60.355 Y62.726 E58.30948
G1 X60.166 Y62.002 E58.34494
G1 X60.054 Y61.263 E58.38037
G1 X60.022 Y60.515 E58.41585
G1 X60.071 Y59.769 E58.45128
G1 X60.262 Y58.775 E58.49926
G1 X60.305 Y58.615 E58.50711
G1 X60.537 Y57.904 E58.54256
G1 X60.844 Y57.222 E58.578
G1 X61.222 Y56.577 E58.61344
G1 X61.667 Y55.975 E58.64892
G1 X62.174 Y55.425 E58.68437
G1 X62.736 Y54.931 E58.71984
G1 X63.567 Y54.368 E58.76741
G1 X64.231 Y53.985 E58.80374
G1 X64.899 Y53.647 E58.83922
G1 X65.598 Y53.381 E58.87467
G1 X66.322 Y53.192 E58.91013
G1 X67.061 Y53.081 E58.94555
G1 X67.809 Y53.049 E58.98104
G1 X68.555 Y53.098 E59.01647
G1 X69.546 Y53.289 E59.0643
G1 X69.706 Y53.332 E59.07216
G1 X70.417 Y53.564 E59.1076
G1 X71.099 Y53.871 E59.14305
G0 F3600 X70.953 Y54.246
G1 F1800 X71.577 Y54.618 E59.17748
G1 X72.156 Y55.057 E59.21192
G1 X72.683 Y55.556 E59.24632
G1 X73.153 Y56.11 E59.28075
G1 X73.605 Y56.792 E59.31953
G1 X95.988 Y95.561 E61.44127
G1 X96.316 Y96.209 E61.47569
G1 X96.571 Y96.889 E61.51011
G1 X96.749 Y97.593 E61.54453
G1 X96.849 Y98.313 E61.57898
G1 X96.87 Y99.039 E61.6134
G1 X96.81 Y99.763 E61.64784
G1 X96.646 Y100.574 E61.68705
G1 X96.603 Y100.734 E61.6949
G1 X96.376 Y101.424 E61.72933
G1 X96.075 Y102.085 E61.76376
G1 X95.703 Y102.709 E61.79819
G1 X95.264 Y103.288 E61.83262
G1 X94.765 Y103.815 E61.86702
G1 X94.211 Y104.285 E61.90146
G1 X93.529 Y104.737 E61.94023
G1 X75.545 Y115.12 E62.92446
G1 X74.897 Y115.448 E62.95888
G1 X74.217 Y115.703 E62.9933
G1 X73.513 Y115.881 E63.02772
G1 X72.793 Y115.981 E63.06217
G1 X72.067 Y116.002 E63.09659
G1 X71.343 Y115.942 E63.13103
G1 X70.532 Y115.778 E63.17024
G1 X70.372 Y115.735 E63.17809
G1 X69.682 Y115.508 E63.21252
G1 X69.021 Y115.207 E63.24695
G1 X68.397 Y114.835 E63.28138
G1 X67.818 Y114.396 E63.31582
G1 X67.291 Y113.897 E63.35021
G1 X66.821 Y113.343 E63.38465
G1 X66.369 Y112.661 E63.42343
G1 X47.728 Y80.373 E65.19047
G1 X44.885 Y82.015 E65.34607
G1 X44.237 Y82.343 E65.38049
G1 X43.557 Y82.598 E65.41492
G1 X42.853 Y82.776 E65.44933
G1 X42.133 Y82.876 E65.48378
