;FilamentType:PLA
;MachineType:MP Cadet
;Extruder0Temperature:200
;BedTemperature:40
;InfillDensity:10
;FLAVOR:Marlin
;TIME:10805
;FilamentUsed: 8150.35
;Layer height: 0.15
;MINX:2.7
;MINY:11.45
;MINZ:0.3
;MAXX:97.3
;MAXY:109.411
;MAXZ:24.9
;Generated with Cura_SteamEngine 4.3.0
M82 ;absolute extrusion mode
;(**** start.gcode for Cadet****)
M104 S150
G28 Z
G28 X Y; Home extruder
G1 X55 Y55 F1000
G1 Z10 F200
G29
G1 Z15 F100
M107 ; Turn off fan
G90 ; Absolute positioning
M82 ; Extruder in absolute mode
M109 S215
G92 E0 ; Reset extruder position
G1 X90 Y6 Z0.27 F2000
G1 X20 Y6 Z0.27 E15 F1000 
G92 E0 ; Reset extruder position

M203 Z5
G92 E0
G92 E0
G1 F2100 E-3
;LAYER_COUNT:165
;LAYER:0
M107
G0 F3600 X23.23 Y56.196 Z0.3
;TYPE:SUPPORT
G1 F2100 E0
G1 F1800 X24.091 Y58.323 E0.10876
G1 X23.694 Y60.549 E0.21592
G1 X22.027 Y62.331 E0.33158
G1 X20.006 Y62.867 E0.43068
G1 X17.668 Y62.146 E0.54664
G1 X16.206 Y60.362 E0.65596
G1 X15.931 Y58.107 E0.76363
G1 X17.033 Y55.907 E0.88025
G1 X19.013 Y54.761 E0.98867
G1 X21.45 Y54.9 E1.10437
G1 X23.23 Y56.196 E1.20872
G0 F3600 X22.698 Y56.007
G1 F1800 X17.178 Y56.007 E1.47035
G0 F3600 X18.669 Y55.144
G1 F1800 X18.669 Y62.287 E1.80889
G0 F3600 X17.214 Y61.341
G1 F1800 X22.732 Y61.341 E2.07042
G0 F3600 X21.336 Y62.35
G1 F1800 X21.336 Y55.055 E2.41618
G0 F3600 X23.864 Y58.674
G1 F1800 X16.16 Y58.674 E2.78131
G1 F2100 E-0.21869
;MESH:CPAP Part R??ckwand_links.stl
G0 F3600 X16.852 Y55.738
G0 X15.891 Y54.836
G0 X18.627 Y53.141
G0 X18.65 Y53.238
;TYPE:WALL-INNER
G1 F2100 E2.78131
G1 F1800 X15.891 Y54.836 E2.93243
G1 X14.442 Y57.729 E3.08578
G1 X14.409 Y58.032 E3.10023
G1 X14.752 Y60.838 E3.23421
G1 X14.885 Y61.118 E3.2489
G1 X16.683 Y63.312 E3.38334
G1 X16.904 Y63.48 E3.3965
G1 X19.736 Y64.354 E3.53697
G1 X20.009 Y64.418 E3.55026
G1 X22.83 Y63.67 E3.68859
G1 X25.094 Y61.251 E3.84562
G1 X25.644 Y58.161 E3.99437
G1 X24.566 Y55.503 E4.13031
G1 X24.435 Y55.218 E4.14518
G1 X22.206 Y53.593 E4.27592
G1 X21.955 Y53.425 E4.29024
G1 X18.65 Y53.238 E4.44713
G0 F3600 X18.627 Y53.141
G0 X21.967 Y53.388
G0 X96.795 Y107.949
G0 X96.896 Y107.949
G1 F1800 X96.897 Y107.95 E4.4472
G1 X96.897 Y108.15 E4.45667
G1 X96.697 Y108.15 E4.46281
G1 X96.696 Y108.15 E4.46286
G1 X3.303 Y108.15 E8.88929
G1 X3.103 Y108.15 E8.89876
G1 X3.103 Y107.95 E8.9049
G1 X3.108 Y106.885 E8.95538
G1 X3.135 Y104.995 E9.04497
G1 X3.18 Y103.08 E9.13575
G1 X3.243 Y101.186 E9.22557
G1 X3.325 Y99.289 E9.31557
G1 X3.426 Y97.356 E9.40731
G1 X3.548 Y95.405 E9.49996
G1 X3.684 Y93.531 E9.58901
G1 X3.844 Y91.573 E9.68212
G1 X4.016 Y89.716 E9.77051
G1 X4.21 Y87.826 E9.86056
G1 X4.43 Y85.875 E9.95361
G1 X4.663 Y83.982 E10.04401
G1 X4.913 Y82.104 E10.1338
G1 X5.191 Y80.18 E10.22594
G1 X5.489 Y78.257 E10.31817
G1 X5.798 Y76.411 E10.40688
G1 X6.128 Y74.55 E10.49646
G1 X6.493 Y72.618 E10.58965
G1 X6.862 Y70.775 E10.67873
G1 X7.269 Y68.872 E10.77097
G1 X7.693 Y66.982 E10.86277
G1 X8.131 Y65.154 E10.95186
G1 X8.589 Y63.324 E11.04127
G1 X9.091 Y61.426 E11.13432
G1 X9.594 Y59.617 E11.22331
G1 X10.148 Y57.731 E11.31648
G1 X10.7 Y55.94 E11.4053
G1 X11.304 Y54.072 E11.49835
G1 X11.905 Y52.3 E11.58704
G1 X12.539 Y50.522 E11.6765
G1 X13.221 Y48.699 E11.76875
G1 X13.927 Y46.899 E11.86039
G1 X14.643 Y45.162 E11.94944
G1 X15.412 Y43.383 E12.0413
G1 X16.214 Y41.617 E12.13322
G1 X17.017 Y39.934 E12.22161
G1 X17.864 Y38.249 E12.31099
G1 X18.768 Y36.535 E12.40283
G1 X19.711 Y34.84 E12.49476
G1 X20.658 Y33.227 E12.58341
G1 X21.676 Y31.585 E12.67498
G1 X22.737 Y29.969 E12.76661
G1 X23.805 Y28.439 E12.85504
G1 X24.928 Y26.921 E12.94453
G1 X26.124 Y25.404 E13.03609
G1 X27.366 Y23.935 E13.12727
G1 X28.616 Y22.559 E13.21537
G1 X29.978 Y21.17 E13.30758
G1 X31.35 Y19.884 E13.3967
G1 X32.761 Y18.672 E13.48486
G1 X34.276 Y17.491 E13.5759
G1 X35.827 Y16.408 E13.66556
G1 X37.435 Y15.414 E13.75516
G1 X39.129 Y14.507 E13.84623
G1 X40.81 Y13.742 E13.93377
G1 X42.536 Y13.096 E14.02111
G1 X44.389 Y12.552 E14.11265
G1 X46.226 Y12.168 E14.20159
G1 X48.066 Y11.935 E14.2895
G1 X49.953 Y11.853 E14.37902
G1 X51.803 Y11.924 E14.46676
G1 X53.66 Y12.149 E14.55542
G1 X55.501 Y12.524 E14.64447
G1 X57.314 Y13.044 E14.73386
G1 X59.071 Y13.692 E14.82262
G1 X60.802 Y14.473 E14.91263
G1 X62.446 Y15.346 E15.00085
G1 X64.029 Y16.315 E15.08882
G1 X65.606 Y17.405 E15.17968
G1 X67.136 Y18.587 E15.27131
G1 X68.556 Y19.799 E15.35979
G1 X69.933 Y21.082 E15.449
G1 X71.25 Y22.416 E15.53784
G1 X72.558 Y23.849 E15.6298
G1 X73.763 Y25.267 E15.718
G1 X74.982 Y26.803 E15.81094
G1 X76.106 Y28.313 E15.90015
G1 X77.182 Y29.852 E15.98916
G1 X78.22 Y31.425 E16.07848
G1 X79.244 Y33.067 E16.17019
G1 X80.222 Y34.726 E16.26147
G1 X81.164 Y36.41 E16.35292
G1 X82.039 Y38.061 E16.44148
G1 X82.889 Y39.748 E16.53102
G1 X83.735 Y41.51 E16.62365
G1 X84.515 Y43.22 E16.71273
G1 X85.287 Y44.997 E16.80456
G1 X86.03 Y46.795 E16.89677
G1 X86.714 Y48.531 E16.9852
G1 X87.377 Y50.295 E17.07452
G1 X88.038 Y52.142 E17.1675
G1 X88.653 Y53.946 E17.25783
G1 X89.244 Y55.765 E17.34848
G1 X89.805 Y57.58 E17.43852
G1 X90.359 Y59.463 E17.53155
G1 X90.865 Y61.271 E17.62053
G1 X91.349 Y63.092 E17.70983
G1 X91.829 Y64.995 E17.80285
G1 X92.268 Y66.829 E17.89223
G1 X92.697 Y68.721 E17.98418
G1 X93.103 Y70.619 E18.07617
G1 X93.475 Y72.459 E18.16515
G1 X93.828 Y74.313 E18.2546
G1 X94.17 Y76.231 E18.34694
G1 X94.489 Y78.126 E18.43801
G1 X94.787 Y80.047 E18.53015
G1 X95.057 Y81.904 E18.61909
G1 X95.31 Y83.778 E18.70871
G1 X95.55 Y85.705 E18.80075
G1 X95.767 Y87.619 E18.89205
G1 X95.966 Y89.549 E18.98401
G1 X96.141 Y91.417 E19.07293
G1 X96.297 Y93.302 E19.16258
G1 X96.442 Y95.265 E19.25587
G1 X96.562 Y97.163 E19.346
G1 X96.664 Y99.059 E19.436
G1 X96.749 Y101.027 E19.52936
G1 X96.813 Y102.9 E19.61818
G1 X96.859 Y104.798 E19.70817
G1 X96.889 Y106.753 E19.80083
G1 X96.896 Y107.949 E19.85752
G0 F3600 X97.298 Y108.349
;TYPE:WALL-OUTER
G1 F1800 X97.299 Y108.35 E19.85759
G1 X97.299 Y108.55 E19.86707
G1 X97.099 Y108.55 E19.8732
G1 X97.098 Y108.55 E19.87325
G1 X2.901 Y108.55 E24.33778
G1 X2.701 Y108.55 E24.34726
G1 X2.701 Y108.35 E24.3534
G1 X2.708 Y106.879 E24.42312
G1 X2.735 Y104.986 E24.51285
G1 X2.78 Y103.067 E24.60383
G1 X2.843 Y101.169 E24.69383
G1 X2.925 Y99.272 E24.78383
G1 X3.027 Y97.331 E24.87595
G1 X3.149 Y95.376 E24.96879
G1 X3.285 Y93.498 E25.05803
G1 X3.445 Y91.54 E25.15114
G1 X3.618 Y89.675 E25.23991
G1 X3.812 Y87.785 E25.32996
G1 X4.033 Y85.826 E25.4234
G1 X4.266 Y83.933 E25.5138
G1 X4.518 Y82.047 E25.60398
G1 X4.796 Y80.119 E25.6963
G1 X5.095 Y78.191 E25.78877
G1 X5.404 Y76.341 E25.87767
G1 X5.735 Y74.476 E25.96744
G1 X6.101 Y72.54 E26.06083
G1 X6.471 Y70.691 E26.1502
G1 X6.879 Y68.785 E26.24258
G1 X7.304 Y66.889 E26.33467
G1 X7.743 Y65.057 E26.42396
G1 X8.202 Y63.222 E26.51361
G1 X8.704 Y61.324 E26.60666
G1 X9.211 Y59.504 E26.69621
G1 X9.764 Y57.618 E26.78936
G1 X10.319 Y55.817 E26.87868
G1 X10.925 Y53.943 E26.97203
G1 X11.528 Y52.166 E27.06097
G1 X12.164 Y50.382 E27.15073
G1 X12.846 Y48.559 E27.24298
G1 X13.557 Y46.747 E27.33524
G1 X14.276 Y45.003 E27.42465
G1 X15.048 Y43.218 E27.51682
G1 X15.853 Y41.445 E27.60911
G1 X16.66 Y39.754 E27.69792
G1 X17.51 Y38.062 E27.78766
G1 X18.418 Y36.341 E27.87988
G1 X19.366 Y34.637 E27.9723
G1 X20.318 Y33.016 E28.0614
G1 X21.342 Y31.365 E28.15348
G1 X22.409 Y29.74 E28.24562
G1 X23.483 Y28.201 E28.33456
G1 X24.606 Y26.683 E28.42406
G1 X25.81 Y25.156 E28.51622
G1 X27.07 Y23.666 E28.60871
G1 X28.33 Y22.279 E28.69752
G1 X29.704 Y20.878 E28.79053
G1 X31.076 Y19.592 E28.87965
G1 X32.5 Y18.369 E28.96862
G1 X34.047 Y17.163 E29.06159
G1 X35.598 Y16.08 E29.15125
G1 X37.246 Y15.061 E29.24308
G1 X38.947 Y14.15 E29.33453
G1 X40.66 Y13.371 E29.42372
G1 X42.409 Y12.716 E29.51224
G1 X44.294 Y12.163 E29.60535
G1 X46.156 Y11.774 E29.6955
G1 X48.035 Y11.536 E29.78527
G1 X49.95 Y11.452 E29.87612
G1 X51.83 Y11.524 E29.96529
G1 X53.726 Y11.754 E30.05581
G1 X55.6 Y12.136 E30.14646
G1 X57.428 Y12.66 E30.23659
G1 X59.236 Y13.327 E30.32792
G1 X60.967 Y14.108 E30.41793
G1 X62.644 Y14.999 E30.50793
G1 X64.244 Y15.977 E30.59681
G1 X65.851 Y17.088 E30.68941
G1 X67.381 Y18.27 E30.78104
G1 X68.829 Y19.506 E30.87127
G1 X70.206 Y20.789 E30.96047
G1 X71.535 Y22.135 E31.05013
G1 X72.863 Y23.59 E31.14349
G1 X74.076 Y25.018 E31.23229
G1 X75.303 Y26.564 E31.32584
G1 X76.434 Y28.084 E31.41564
G1 X77.516 Y29.632 E31.50515
G1 X78.559 Y31.213 E31.59492
G1 X79.589 Y32.864 E31.68715
G1 X80.567 Y34.523 E31.77843
G1 X81.517 Y36.223 E31.87073
G1 X82.396 Y37.881 E31.95967
G1 X83.25 Y39.575 E32.04958
G1 X84.099 Y41.344 E32.14258
G1 X84.882 Y43.061 E32.23202
G1 X85.657 Y44.844 E32.32417
G1 X86.4 Y46.642 E32.41637
G1 X87.088 Y48.39 E32.50541
G1 X87.753 Y50.16 E32.59502
G1 X88.417 Y52.013 E32.68832
G1 X89.032 Y53.817 E32.77865
G1 X89.626 Y55.647 E32.86984
G1 X90.189 Y57.467 E32.96013
G1 X90.744 Y59.355 E33.0534
G1 X91.251 Y61.168 E33.14263
G1 X91.737 Y62.994 E33.23218
G1 X92.218 Y64.902 E33.32544
G1 X92.658 Y66.741 E33.41506
G1 X93.088 Y68.637 E33.50721
G1 X93.495 Y70.54 E33.59944
G1 X93.868 Y72.384 E33.68861
G1 X94.222 Y74.243 E33.7783
G1 X94.564 Y76.161 E33.87064
G1 X94.884 Y78.065 E33.96215
G1 X95.183 Y79.99 E34.05448
G1 X95.453 Y81.85 E34.14356
G1 X95.707 Y83.729 E34.23342
G1 X95.947 Y85.66 E34.32565
G1 X96.164 Y87.578 E34.41713
G1 X96.364 Y89.512 E34.50929
G1 X96.539 Y91.384 E34.5984
G1 X96.696 Y93.273 E34.68824
G1 X96.841 Y95.24 E34.78172
G1 X96.961 Y97.142 E34.87204
G1 X97.063 Y99.042 E34.96223
G1 X97.149 Y101.013 E35.05573
G1 X97.213 Y102.89 E35.14474
G1 X97.259 Y104.792 E35.23492
G1 X97.289 Y106.751 E35.32778
G1 X97.298 Y108.349 E35.40352
G0 F3600 X97.299 Y108.35
G0 X97.299 Y108.549
G0 X96.827 Y108.08
G0 X21.967 Y53.388
G0 X18.641 Y53.2
G0 X15.749 Y54.898
G0 X16.195 Y55.122
G1 F1800 X14.832 Y57.844 E35.5478
G1 X14.812 Y58.029 E35.55662
G1 X15.141 Y60.725 E35.68534
G1 X15.225 Y60.902 E35.69463
G1 X16.963 Y63.022 E35.82456
G1 X17.09 Y63.119 E35.83213
G1 X19.841 Y63.968 E35.96859
G1 X20.003 Y64.006 E35.97647
G1 X22.616 Y63.313 E36.1046
G1 X24.721 Y61.064 E36.2506
G1 X25.23 Y58.204 E36.38828
G1 X24.199 Y55.662 E36.51829
G1 X24.115 Y55.48 E36.52779
G1 X21.976 Y53.921 E36.65324
G1 X21.823 Y53.818 E36.66198
G1 X18.747 Y53.644 E36.808
G1 X16.195 Y55.122 E36.94778
G0 F3600 X16.106 Y55.3
G0 X15.595 Y54.557
;TYPE:SKIN
G1 F1800 X14.062 Y57.618 E37.11003
G1 X14.017 Y58.034 E37.12987
G1 X14.372 Y60.948 E37.269
G1 X14.553 Y61.329 E37.28899
G1 X16.41 Y63.595 E37.42785
G1 X16.723 Y63.833 E37.44648
G1 X19.634 Y64.73 E37.59085
G1 X20.015 Y64.82 E37.60941
G1 X23.038 Y64.019 E37.75763
G1 X25.458 Y61.433 E37.92549
G1 X26.048 Y58.118 E38.08508
G1 X24.924 Y55.349 E38.22672
G1 X24.747 Y54.963 E38.24684
G1 X22.43 Y53.273 E38.38277
G1 X22.084 Y53.041 E38.40251
G1 X18.556 Y52.842 E38.56999
G1 X15.595 Y54.557 E38.73217
G0 F3600 X11.673 Y54.197
G1 F1800 X12.272 Y52.431 E38.82055
G1 X12.904 Y50.659 E38.90972
G1 X13.584 Y48.841 E39.00171
G1 X14.288 Y47.047 E39.09305
G1 X15.003 Y45.313 E39.18195
G1 X15.766 Y43.545 E39.27322
G1 X16.568 Y41.782 E39.36502
G1 X17.366 Y40.109 E39.45287
G1 X18.209 Y38.431 E39.54187
G1 X19.109 Y36.724 E39.63333
G1 X20.05 Y35.033 E39.72505
G1 X20.992 Y33.428 E39.81325
G1 X22.002 Y31.799 E39.9041
G1 X23.057 Y30.192 E39.99521
G1 X24.119 Y28.671 E40.08313
G1 X25.234 Y27.163 E40.17202
G1 X26.422 Y25.656 E40.26297
G1 X27.66 Y24.192 E40.35384
G1 X28.895 Y22.832 E40.44091
G1 X30.245 Y21.455 E40.53231
G1 X31.617 Y20.169 E40.62143
G1 X33.001 Y18.98 E40.70791
G1 X34.5 Y17.811 E40.79801
G1 X36.042 Y16.734 E40.88715
G1 X37.63 Y15.752 E40.97564
G1 X39.302 Y14.857 E41.06553
G1 X40.966 Y14.1 E41.15217
G1 X42.66 Y13.466 E41.2379
G1 X44.479 Y12.932 E41.32775
G1 X46.305 Y12.55 E41.41617
G1 X48.083 Y12.325 E41.50111
G1 X49.955 Y12.243 E41.58992
G1 X51.766 Y12.314 E41.67582
G1 X53.61 Y12.537 E41.76385
G1 X55.407 Y12.903 E41.85077
G1 X57.193 Y13.415 E41.93883
G1 X58.931 Y14.056 E42.02663
G1 X60.619 Y14.818 E42.11441
G1 X62.263 Y15.691 E42.20263
G1 X63.816 Y16.642 E42.28894
G1 X65.406 Y17.742 E42.38058
G1 X66.883 Y18.884 E42.46906
G1 X68.296 Y20.09 E42.55711
G1 X69.661 Y21.362 E42.64554
G1 X70.962 Y22.679 E42.73328
G1 X72.265 Y24.107 E42.8249
G1 X73.457 Y25.509 E42.91212
G1 X74.676 Y27.045 E43.00506
G1 X75.762 Y28.502 E43.09119
G1 X76.856 Y30.067 E43.18169
G1 X77.891 Y31.636 E43.27078
G1 X78.908 Y33.265 E43.3618
G1 X79.881 Y34.917 E43.45266
G1 X80.819 Y36.593 E43.54369
G1 X81.69 Y38.236 E43.63183
G1 X82.54 Y39.923 E43.72136
G1 X83.38 Y41.672 E43.81332
G1 X84.158 Y43.376 E43.90211
G1 X84.927 Y45.146 E43.99357
G1 X85.667 Y46.938 E44.08546
G1 X86.349 Y48.668 E44.1736
G1 X87.01 Y50.426 E44.26261
G1 X87.669 Y52.268 E44.35534
G1 X88.282 Y54.067 E44.44541
G1 X88.871 Y55.88 E44.53576
G1 X89.431 Y57.692 E44.62565
G1 X89.983 Y59.568 E44.71834
G1 X90.489 Y61.374 E44.80723
G1 X90.971 Y63.19 E44.89628
G1 X91.449 Y65.086 E44.98895
G1 X91.923 Y67.066 E45.08545
G1 X92.293 Y68.7 E45.16485
G1 X92.721 Y70.697 E45.26165
G1 X93.093 Y72.535 E45.35053
G1 X93.435 Y74.33 E45.43714
G1 X93.786 Y76.296 E45.53179
G1 X94.086 Y78.074 E45.61725
G1 X94.401 Y80.103 E45.71457
G1 X94.671 Y81.956 E45.80332
G1 X94.924 Y83.827 E45.89281
G1 X95.155 Y85.689 E45.98173
G1 X95.379 Y87.66 E46.07575
G1 X95.578 Y89.586 E46.16752
G1 X95.753 Y91.449 E46.25621
G1 X95.909 Y93.331 E46.34571
G1 X96.046 Y95.186 E46.43387
G1 X96.172 Y97.184 E46.52876
G1 X96.274 Y99.076 E46.61856
G1 X96.359 Y101.04 E46.71173
G1 X96.423 Y102.91 E46.80041
G1 X96.469 Y104.804 E46.89021
G1 X96.499 Y106.755 E46.98269
G1 X96.505 Y107.76 E47.03032
G1 X3.495 Y107.76 E51.43859
G1 X3.498 Y106.891 E51.47978
G1 X3.525 Y105.004 E51.56923
G1 X3.57 Y103.093 E51.65982
G1 X3.633 Y101.203 E51.74945
G1 X3.715 Y99.309 E51.8393
G1 X3.816 Y97.38 E51.93085
G1 X3.947 Y95.278 E52.03067
G1 X4.072 Y93.562 E52.11222
G1 X4.232 Y91.609 E52.20509
G1 X4.404 Y89.755 E52.29334
G1 X4.598 Y87.869 E52.3832
G1 X4.818 Y85.922 E52.47607
G1 X5.076 Y83.827 E52.57611
G1 X5.299 Y82.16 E52.65583
G1 X5.577 Y80.24 E52.74777
G1 X5.9 Y78.157 E52.84768
G1 X6.182 Y76.479 E52.92832
G1 X6.512 Y74.622 E53.01772
G1 X6.906 Y72.535 E53.11838
G1 X7.212 Y71.007 E53.19224
G1 X7.692 Y68.763 E53.301
G1 X8.072 Y67.073 E53.3831
G1 X8.51 Y65.247 E53.4721
G1 X8.965 Y63.424 E53.56115
G1 X9.467 Y61.529 E53.65406
G1 X9.968 Y59.727 E53.74271
G1 X10.52 Y57.846 E53.83562
G1 X11.071 Y56.06 E53.92421
G1 X11.673 Y54.197 E54.017
G0 F3600 X4.058 Y107.579
G1 F1800 X3.676 Y107.197 E54.0426
G0 F3600 X3.681 Y106.636
G1 F1800 X4.624 Y107.579 E54.10581
G0 F3600 X5.19 Y107.579
G1 F1800 X3.689 Y106.078 E54.20642
G0 F3600 X3.697 Y105.52
G1 F1800 X5.755 Y107.579 E54.3444
G0 F3600 X6.321 Y107.579
G1 F1800 X3.705 Y104.963 E54.51974
G0 F3600 X3.718 Y104.41
G1 F1800 X6.887 Y107.579 E54.73215
G0 F3600 X7.452 Y107.579
G1 F1800 X3.731 Y103.857 E54.98159
G0 F3600 X3.744 Y103.305
G1 F1800 X8.018 Y107.579 E55.26807
G0 F3600 X8.584 Y107.579
G1 F1800 X3.761 Y102.756 E55.59135
G0 F3600 X3.778 Y102.208
G1 F1800 X9.149 Y107.579 E55.95135
G0 F3600 X9.715 Y107.579
G1 F1800 X3.797 Y101.66 E56.34805
G0 F3600 X3.816 Y101.114
G1 F1800 X10.281 Y107.579 E56.78139
G0 F3600 X10.847 Y107.579
G1 F1800 X3.84 Y100.572 E57.25105
G0 F3600 X3.863 Y100.03
G1 F1800 X11.412 Y107.579 E57.75704
G0 F3600 X11.978 Y107.579
G1 F1800 X3.887 Y99.488 E58.29936
G0 F3600 X3.914 Y98.949
G1 F1800 X12.544 Y107.579 E58.87781
G0 F3600 X13.109 Y107.579
G1 F1800 X3.942 Y98.411 E59.49229
G0 F3600 X3.97 Y97.874
G1 F1800 X13.675 Y107.579 E60.14279
G0 F3600 X14.241 Y107.579
G1 F1800 X3.998 Y97.336 E60.82935
G0 F3600 X4.031 Y96.804
G1 F1800 X14.806 Y107.579 E61.55158
G0 F3600 X15.372 Y107.579
G1 F1800 X4.065 Y96.271 E62.30949
G0 F3600 X4.098 Y95.739
G1 F1800 X15.938 Y107.579 E63.1031
G0 F3600 X16.503 Y107.579
G1 F1800 X4.13 Y95.206 E63.93243
G0 F3600 X4.169 Y94.679
G1 F1800 X17.069 Y107.579 E64.79709
G0 F3600 X17.635 Y107.579
G1 F1800 X4.207 Y94.151 E65.69713
G0 F3600 X4.246 Y93.624
G1 F1800 X18.2 Y107.579 E66.63247
G0 F3600 X18.766 Y107.579
G1 F1800 X4.289 Y93.101 E67.60286
G0 F3600 X4.332 Y92.579
G1 F1800 X19.332 Y107.579 E68.60828
G0 F3600 X19.897 Y107.579
G1 F1800 X4.374 Y92.056 E69.64875
G0 F3600 X4.418 Y91.534
G1 F1800 X20.463 Y107.579 E70.72421
G0 F3600 X21.029 Y107.579
