;FilamentType:PLA
;MachineType:MP Cadet
;Extruder0Temperature:190
;BedTemperature:40
;InfillDensity:10
;FLAVOR:Marlin
;TIME:5602
;FilamentUsed: 2705.21
;Layer height: 0.1
;MINX:1.273
;MINY:4.202
;MINZ:0.36
;MAXX:93.776
;MAXY:117.919
;MAXZ:15.82
;Generated with Cura_SteamEngine 4.3.0
M82 ;absolute extrusion mode
;(**** start.gcode for Cadet****)
M104 S150
G28 Z
G28 X Y; Home extruder
G1 X55 Y55 F1000
G1 Z10 F200
G29
G1 Z15 F100
M107 ; Turn off fan
G90 ; Absolute positioning
M82 ; Extruder in absolute mode
M109 S215
G92 E0 ; Reset extruder position
G1 X90 Y6 Z0.27 F2000
G1 X20 Y6 Z0.27 E15 F1000 
G92 E0 ; Reset extruder position

M203 Z5
G92 E0
G92 E0
G1 F2100 E-3
;LAYER_COUNT:148
;LAYER:-8
M107
G0 F7200 X91.378 Y14.266 Z0.36
;TYPE:SUPPORT-INTERFACE
G1 F2100 E0
G1 F1200 X91.784 Y14.715 E0.07248
G1 X91.936 Y14.9 E0.10115
G1 X92.241 Y15.314 E0.16272
G1 X92.379 Y15.521 E0.19251
G1 X92.638 Y15.96 E0.25354
G1 X92.75 Y16.171 E0.28214
G1 X92.976 Y16.658 E0.34643
G1 X93.057 Y16.858 E0.37226
G1 X93.24 Y17.381 E0.43861
G1 X93.297 Y17.575 E0.46282
G1 X93.426 Y18.113 E0.52906
G1 X93.467 Y18.334 E0.55598
G1 X93.538 Y18.856 E0.61906
G1 X93.557 Y19.081 E0.64609
G1 X93.58 Y19.688 E0.71882
G1 X93.576 Y19.83 E0.73583
G1 X93.546 Y20.434 E0.80824
G1 X93.525 Y20.642 E0.83328
G1 X93.444 Y21.18 E0.89842
G1 X93.404 Y21.381 E0.92296
G1 X93.266 Y21.921 E0.98969
G1 X93.204 Y22.121 E1.01477
G1 X93.018 Y22.629 E1.07954
G1 X92.926 Y22.849 E1.10809
G1 X92.696 Y23.324 E1.17129
G1 X92.594 Y23.51 E1.19669
G1 X92.314 Y23.967 E1.26086
G1 X92.178 Y24.167 E1.28982
G1 X91.865 Y24.578 E1.35168
G1 X91.706 Y24.768 E1.38134
G1 X91.296 Y25.21 E1.45353
G1 X60.367 Y56.133 E6.69032
G1 X59.93 Y56.529 E6.76093
G1 X59.747 Y56.679 E6.78926
G1 X59.323 Y56.991 E6.8523
G1 X59.14 Y57.113 E6.87863
G1 X58.676 Y57.388 E6.94321
G1 X58.481 Y57.491 E6.96962
G1 X57.991 Y57.719 E7.03433
G1 X57.781 Y57.804 E7.06146
G1 X57.271 Y57.982 E7.12613
G1 X57.061 Y58.044 E7.15235
G1 X56.537 Y58.17 E7.21688
G1 X56.318 Y58.21 E7.24354
G1 X55.795 Y58.282 E7.30675
G1 X55.563 Y58.302 E7.33463
G1 X54.949 Y58.325 E7.4082
G1 X54.678 Y58.315 E7.44067
G1 X54.008 Y58.323 E7.5209
G1 X53.331 Y58.418 E7.60276
G1 X52.672 Y58.598 E7.68455
G1 X52.042 Y58.859 E7.76621
G1 X51.449 Y59.197 E7.84793
G1 X50.903 Y59.609 E7.92983
G1 X50.414 Y60.085 E8.01154
G1 X49.988 Y60.619 E8.09334
G1 X49.634 Y61.202 E8.175
G1 X49.356 Y61.826 E8.2568
G1 X49.159 Y62.48 E8.33858
G1 X49.046 Y63.155 E8.42053
G1 X49.022 Y63.92 E8.51217
G1 X49.033 Y64.236 E8.55003
G1 X49.023 Y64.517 E8.5837
G1 X49.032 Y65.186 E8.66381
G1 X49.126 Y65.863 E8.74565
G1 X49.307 Y66.522 E8.82748
G1 X49.568 Y67.152 E8.90913
G1 X49.906 Y67.745 E8.99086
G1 X50.317 Y68.291 E9.07269
G1 X50.794 Y68.78 E9.15448
G1 X51.328 Y69.205 E9.2362
G1 X51.911 Y69.559 E9.31786
G1 X52.535 Y69.838 E9.39971
G1 X53.189 Y70.034 E9.48146
G1 X53.865 Y70.148 E9.56354
G1 X54.629 Y70.171 E9.65506
G1 X54.948 Y70.16 E9.69328
G1 X55.085 Y70.164 E9.70969
G1 X55.689 Y70.194 E9.7821
G1 X55.898 Y70.215 E9.80725
G1 X56.441 Y70.297 E9.87301
G1 X56.636 Y70.336 E9.89682
G1 X57.176 Y70.474 E9.96355
G1 X57.376 Y70.536 E9.98862
G1 X57.884 Y70.722 E10.0534
G1 X58.104 Y70.814 E10.08195
G1 X58.579 Y71.044 E10.14514
G1 X58.765 Y71.146 E10.17054
G1 X59.222 Y71.426 E10.23472
G1 X59.422 Y71.562 E10.26368
G1 X59.833 Y71.875 E10.32553
G1 X60.023 Y72.034 E10.3552
G1 X60.441 Y72.42 E10.42333
G1 X60.973 Y72.956 E10.51375
G1 X61.379 Y73.405 E10.58623
G1 X61.531 Y73.59 E10.6149
G1 X61.836 Y74.004 E10.67647
G1 X61.974 Y74.211 E10.70626
G1 X62.233 Y74.65 E10.76729
G1 X62.345 Y74.861 E10.79589
G1 X62.571 Y75.348 E10.86018
G1 X62.652 Y75.548 E10.88601
G1 X62.835 Y76.071 E10.95236
G1 X62.892 Y76.265 E10.97657
G1 X63.021 Y76.803 E11.04281
G1 X63.062 Y77.024 E11.06973
G1 X63.133 Y77.546 E11.13281
G1 X63.152 Y77.771 E11.15984
G1 X63.175 Y78.378 E11.23257
G1 X63.171 Y78.52 E11.24958
G1 X63.141 Y79.124 E11.32199
G1 X63.12 Y79.332 E11.34703
G1 X63.038 Y79.876 E11.4129
G1 X62.999 Y80.071 E11.43671
G1 X62.861 Y80.611 E11.50344
G1 X62.799 Y80.811 E11.52852
G1 X62.613 Y81.319 E11.59329
G1 X62.521 Y81.539 E11.62184
G1 X62.291 Y82.014 E11.68504
G1 X62.189 Y82.2 E11.71044
G1 X61.909 Y82.657 E11.77461
G1 X61.773 Y82.857 E11.80357
G1 X61.46 Y83.268 E11.86543
G1 X61.301 Y83.458 E11.89509
G1 X60.915 Y83.876 E11.96322
G1 X29.266 Y115.521 E17.3221
G1 X28.809 Y115.935 E17.39593
G1 X28.652 Y116.064 E17.42026
G1 X28.208 Y116.391 E17.48629
G1 X28.028 Y116.511 E17.51219
G1 X27.564 Y116.786 E17.57677
G1 X27.369 Y116.889 E17.60318
G1 X26.879 Y117.117 E17.66789
G1 X26.669 Y117.202 E17.69502
G1 X26.159 Y117.38 E17.75969
G1 X25.949 Y117.442 E17.78591
G1 X25.425 Y117.568 E17.85044
G1 X25.206 Y117.608 E17.8771
G1 X24.683 Y117.68 E17.94031
G1 X24.451 Y117.7 E17.96819
G1 X23.839 Y117.723 E18.04152
G1 X23.702 Y117.719 E18.05793
G1 X23.098 Y117.689 E18.13034
G1 X22.889 Y117.668 E18.15549
G1 X22.346 Y117.586 E18.22125
G1 X22.151 Y117.547 E18.24506
G1 X21.611 Y117.409 E18.31179
G1 X21.409 Y117.346 E18.33713
G1 X20.903 Y117.161 E18.40164
G1 X20.683 Y117.069 E18.43019
G1 X20.214 Y116.843 E18.49253
G1 X20.018 Y116.735 E18.51932
G1 X19.55 Y116.447 E18.58512
G1 X19.365 Y116.321 E18.61192
G1 X18.954 Y116.008 E18.67378
G1 X18.763 Y115.848 E18.70361
G1 X18.316 Y115.433 E18.77665
G1 X3.656 Y100.768 E21.25949
G1 X3.262 Y100.333 E21.32976
G1 X3.113 Y100.151 E21.35793
G1 X2.813 Y99.742 E21.41866
G1 X2.667 Y99.521 E21.45038
G1 X2.412 Y99.089 E21.51044
G1 X2.3 Y98.879 E21.53894
G1 X2.074 Y98.392 E21.60322
G1 X1.991 Y98.187 E21.62971
G1 X1.81 Y97.669 E21.69541
G1 X1.75 Y97.463 E21.7211
G1 X1.624 Y96.938 E21.78574
G1 X1.583 Y96.716 E21.81278
G1 X1.512 Y96.194 E21.87585
G1 X1.493 Y95.969 E21.90289
G1 X1.47 Y95.362 E21.97562
G1 X1.474 Y95.22 E21.99263
G1 X1.504 Y94.613 E22.0654
G1 X1.525 Y94.408 E22.09007
G1 X1.607 Y93.864 E22.15595
G1 X1.646 Y93.669 E22.17976
G1 X1.785 Y93.125 E22.24699
G1 X1.846 Y92.929 E22.27157
G1 X2.032 Y92.421 E22.33634
G1 X2.124 Y92.201 E22.36489
G1 X2.357 Y91.719 E22.429
G1 X2.456 Y91.54 E22.45349
G1 X2.736 Y91.083 E22.51766
G1 X2.872 Y90.883 E22.54662
G1 X3.185 Y90.472 E22.60848
G1 X3.344 Y90.282 E22.63814
G1 X3.754 Y89.84 E22.71033
G1 X25.817 Y67.779 E26.44615
G1 X26.26 Y67.275 E26.5265
G1 X26.643 Y66.711 E26.60813
G1 X26.952 Y66.101 E26.69001
G1 X27.181 Y65.459 E26.77162
G1 X27.328 Y64.791 E26.85352
G1 X27.389 Y64.112 E26.93515
G1 X27.364 Y63.429 E27.01698
G1 X27.253 Y62.755 E27.09877
G1 X27.055 Y62.096 E27.18116
G1 X26.644 Y61.231 E27.29583
G1 X26.439 Y60.884 E27.34409
G1 X26.351 Y60.717 E27.36669
G1 X26.114 Y60.208 E27.43392
G1 X26.034 Y60.013 E27.45916
G1 X25.853 Y59.492 E27.5252
G1 X25.795 Y59.297 E27.54956
G1 X25.662 Y58.743 E27.61778
G1 X25.627 Y58.552 E27.64103
G1 X25.554 Y58.016 E27.7058
G1 X25.534 Y57.784 E27.73368
G1 X25.511 Y57.179 E27.80617
G1 X25.515 Y57.037 E27.82318
G1 X25.545 Y56.43 E27.89595
G1 X25.566 Y56.225 E27.92062
G1 X25.648 Y55.681 E27.9865
G1 X25.687 Y55.486 E28.01031
G1 X25.826 Y54.942 E28.07754
G1 X25.887 Y54.746 E28.10212
G1 X26.073 Y54.238 E28.16689
G1 X26.165 Y54.018 E28.19544
G1 X26.398 Y53.536 E28.25955
G1 X26.497 Y53.357 E28.28404
G1 X26.777 Y52.9 E28.34821
G1 X26.913 Y52.7 E28.37717
G1 X27.226 Y52.289 E28.43903
G1 X27.385 Y52.099 E28.46869
G1 X27.771 Y51.681 E28.53682
G1 X44.923 Y34.529 E31.44122
G1 X45.365 Y34.025 E31.52148
G1 X45.748 Y33.461 E31.60312
G1 X46.057 Y32.851 E31.68499
G1 X46.288 Y32.204 E31.76725
G1 X46.465 Y31.285 E31.87931
G1 X46.49 Y31.039 E31.90892
G1 X46.566 Y30.536 E31.96983
G1 X46.609 Y30.322 E31.99596
G1 X46.748 Y29.778 E32.06319
G1 X46.809 Y29.582 E32.08777
G1 X46.995 Y29.074 E32.15255
G1 X47.087 Y28.854 E32.1811
G1 X47.32 Y28.372 E32.2452
G1 X47.419 Y28.193 E32.26969
G1 X47.699 Y27.736 E32.33387
G1 X47.835 Y27.536 E32.36283
G1 X48.148 Y27.125 E32.42468
G1 X48.307 Y26.935 E32.45435
G1 X48.7 Y26.51 E32.52366
G1 X52.073 Y23.141 E33.09448
G1 X52.522 Y22.735 E33.16696
G1 X52.707 Y22.583 E33.19563
G1 X53.121 Y22.278 E33.2572
G1 X53.323 Y22.143 E33.28629
G1 X53.775 Y21.876 E33.34915
G1 X53.97 Y21.773 E33.37556
G1 X54.46 Y21.545 E33.44027
G1 X54.67 Y21.46 E33.46739
G1 X55.18 Y21.282 E33.53207
G1 X55.39 Y21.22 E33.55829
G1 X55.914 Y21.094 E33.62282
G1 X56.133 Y21.054 E33.64948
G1 X56.687 Y20.98 E33.7164
G1 X57.348 Y20.881 E33.79643
G1 X58.006 Y20.696 E33.87827
G1 X58.634 Y20.428 E33.96003
G1 X59.223 Y20.085 E34.04164
G1 X59.761 Y19.673 E34.12277
G1 X60.027 Y19.425 E34.16632
G1 X72.855 Y6.601 E36.33818
G1 X73.304 Y6.195 E36.41067
G1 X73.489 Y6.043 E36.43933
G1 X73.903 Y5.738 E36.50091
G1 X74.105 Y5.603 E36.53
G1 X74.56 Y5.334 E36.59329
G1 X74.752 Y5.233 E36.61926
G1 X75.242 Y5.005 E36.68397
G1 X75.452 Y4.92 E36.7111
G1 X75.962 Y4.742 E36.77578
G1 X76.172 Y4.68 E36.802
G1 X76.696 Y4.554 E36.86653
G1 X76.915 Y4.514 E36.89318
G1 X77.438 Y4.442 E36.95639
G1 X77.67 Y4.422 E36.98428
G1 X78.282 Y4.399 E37.05761
G1 X78.419 Y4.403 E37.07402
G1 X79.023 Y4.433 E37.14643
G1 X79.232 Y4.454 E37.17158
G1 X79.775 Y4.536 E37.23733
G1 X79.97 Y4.575 E37.26114
G1 X80.51 Y4.713 E37.32788
G1 X80.71 Y4.775 E37.35295
G1 X81.218 Y4.961 E37.41773
G1 X81.438 Y5.053 E37.44628
G1 X81.913 Y5.283 E37.50947
G1 X82.099 Y5.385 E37.53487
G1 X82.556 Y5.665 E37.59904
G1 X82.756 Y5.801 E37.628
G1 X83.167 Y6.114 E37.68986
G1 X83.357 Y6.273 E37.71953
G1 X83.775 Y6.659 E37.78765
G1 X91.378 Y14.266 E39.07543
G0 F7200 X91.2 Y14.088
G1 F1200 X91.2 Y25.306 E40.41863
G0 F7200 X89.6 Y26.906
G1 F1200 X89.6 Y12.488 E42.14499
G0 F7200 X88 Y10.887
G1 F1200 X88 Y28.506 E44.25463
G0 F7200 X86.4 Y30.106
G1 F1200 X86.4 Y9.286 E46.74754
G0 F7200 X84.8 Y7.685
G1 F1200 X84.8 Y31.705 E49.62361
G0 F7200 X83.2 Y33.305
G1 F1200 X83.2 Y6.142 E52.87602
G0 F7200 X81.6 Y5.132
G1 F1200 X81.6 Y34.905 E56.44093
G0 F7200 X80 Y36.504
G1 F1200 X80 Y4.583 E60.26304
G0 F7200 X78.4 Y4.403
G1 F1200 X78.4 Y38.104 E64.29828
G0 F7200 X76.8 Y39.704
G1 F1200 X76.8 Y4.535 E68.50929
G0 F7200 X75.2 Y5.024
G1 F1200 X75.2 Y41.303 E72.85321
G0 F7200 X73.6 Y42.903
G1 F1200 X73.6 Y5.961 E77.27652
G0 F7200 X72 Y7.455
G1 F1200 X72 Y44.503 E81.71251
G0 F7200 X70.4 Y46.102
G1 F1200 X70.4 Y9.055 E86.14839
G0 F7200 X68.8 Y10.654
G1 F1200 X68.8 Y47.702 E90.58439
G0 F7200 X67.2 Y49.302
G1 F1200 X67.2 Y12.254 E95.02039
G0 F7200 X65.6 Y13.853
G1 F1200 X65.6 Y50.902 E99.4565
G0 F7200 X64 Y52.501
G1 F1200 X64 Y15.453 E103.8925
G0 F7200 X62.4 Y17.052
G1 F1200 X62.4 Y54.101 E108.32862
G0 F7200 X60.8 Y55.701
G1 F1200 X60.8 Y18.652 E112.76473
G0 F7200 X59.2 Y20.098
G1 F1200 X59.2 Y57.073 E117.19199
G0 F7200 X57.6 Y57.868
G1 F1200 X57.6 Y20.81 E121.62919
G0 F7200 X56 Y21.078
G1 F1200 X56 Y58.254 E126.08051
G0 F7200 X54.4 Y58.319
G1 F1200 X54.4 Y21.572 E130.48047
G0 F7200 X52.8 Y22.514
G1 F1200 X52.8 Y58.564 E134.79697
G0 F7200 X51.2 Y59.385
G1 F1200 X51.2 Y24.012 E139.03241
G0 F7200 X49.6 Y25.611
G1 F1200 X49.6 Y61.279 E143.30317
G0 F7200 X49.496 Y64.204
G0 X49.6 Y67.209
G1 F1200 X49.6 Y95.19 E146.65351
G0 F7200 X51.2 Y93.59
G1 F1200 X51.2 Y69.104 E149.58538
G0 F7200 X52.8 Y69.918
G1 F1200 X52.8 Y91.99 E152.2282
G0 F7200 X54.4 Y90.391
G1 F1200 X54.4 Y70.165 E154.64999
G0 F7200 X56 Y70.231
G1 F1200 X56 Y88.791 E156.8723
G0 F7200 X57.6 Y87.191
G1 F1200 X57.6 Y70.619 E158.85658
G0 F7200 X59.2 Y71.413
G1 F1200 X59.2 Y85.591 E160.5542
G0 F7200 X60.8 Y83.991
G1 F1200 X60.8 Y72.782 E161.89633
G0 F7200 X62.4 Y74.98
G1 F1200 X62.4 Y81.789 E162.71161
G0 F7200 X48 Y96.79
G1 F1200 X48 Y27.319 E171.02983
G0 F7200 X46.4 Y31.622
G1 F1200 X46.4 Y98.39 E179.02439
G0 F7200 X44.8 Y99.989
G1 F1200 X44.8 Y34.652 E186.84761
G0 F7200 X43.2 Y36.252
G1 F1200 X43.2 Y101.589 E194.67084
G0 F7200 X41.6 Y103.189
G1 F1200 X41.6 Y37.852 E202.49406
G0 F7200 X40 Y39.452
G1 F1200 X40 Y104.789 E210.31728
G0 F7200 X38.4 Y106.389
G1 F1200 X38.4 Y41.052 E218.14051
G0 F7200 X36.8 Y42.652
G1 F1200 X36.8 Y107.988 E225.96361
G0 F7200 X35.2 Y109.588
G1 F1200 X35.2 Y44.252 E233.78671
G0 F7200 X33.6 Y45.852
G1 F1200 X33.6 Y111.188 E241.60981
G0 F7200 X32 Y112.788
G1 F1200 X32 Y47.452 E249.43292
G0 F7200 X30.4 Y49.052
G1 F1200 X30.4 Y114.388 E257.25602
G0 F7200 X28.8 Y115.943
G1 F1200 X28.8 Y50.652 E265.07374
G0 F7200 X27.2 Y52.323
G1 F1200 X27.2 Y62.578 E266.30163
G0 F7200 X27.2 Y65.372
G1 F1200 X27.2 Y116.968 E272.47956
G0 F7200 X25.6 Y117.526
G1 F1200 X25.6 Y67.995 E278.41023
G0 F7200 X24 Y69.595
G1 F1200 X24 Y117.717 E284.17218
G0 F7200 X22.4 Y117.594
G1 F1200 X22.4 Y71.195 E289.72784
G0 F7200 X20.8 Y72.795
G1 F1200 X20.8 Y117.117 E295.0348
G0 F7200 X19.2 Y116.195
G1 F1200 X19.2 Y74.395 E300.03978
G0 F7200 X17.6 Y75.995
G1 F1200 X17.6 Y114.716 E304.6761
G0 F7200 X16 Y113.116
G1 F1200 X16 Y77.595 E308.92926
G0 F7200 X14.4 Y79.194
G1 F1200 X14.4 Y111.515 E312.79926
G0 F7200 X12.8 Y109.915
G1 F1200 X12.8 Y80.794 E316.28611
G0 F7200 X11.2 Y82.394
G1 F1200 X11.2 Y108.314 E319.38968
G0 F7200 X9.6 Y106.714
G1 F1200 X9.6 Y83.994 E322.11009
G0 F7200 X8 Y85.594
M104 S190
G1 F1200 X8 Y105.113 E324.44723
G0 F7200 X6.4 Y103.512
G1 F1200 X6.4 Y87.194 E326.40109
G0 F7200 X4.8 Y88.794
G1 F1200 X4.8 Y101.912 E327.97179
G0 F7200 X3.2 Y100.257
G1 F1200 X3.2 Y90.454 E329.14557
G0 F7200 X1.6 Y93.91
G1 F1200 X1.6 Y96.808 E329.49256
G0 F7200 X25.894 Y66.994
G0 X26.737 Y65.333
G0 X26.927 Y64.093
G0 X26.848 Y63.127
G0 X25.6 Y58.353
G1 F1200 X25.6 Y55.999 E329.77442
G0 F7200 X92.8 Y23.11
G1 F1200 X92.8 Y16.279 E330.59234
G0 F600 X92.8 Y16.279 Z0.51
G0 F7200 X92.749 Y16.17
;TIME_ELAPSED:150.541908
;LAYER:-7
;TYPE:SUPPORT
G1 F1980 X92.637 Y15.96 E330.60422
G1 X92.377 Y15.52 E330.62972
G1 X92.239 Y15.313 E330.64213
G1 X91.935 Y14.9 E330.66771
G1 X91.783 Y14.714 E330.6797
G1 X91.377 Y14.265 E330.7099
G1 X83.774 Y6.658 E331.24647
G1 X83.355 Y6.272 E331.27489
G1 X83.166 Y6.114 E331.28718
G1 X82.755 Y5.801 E331.31296
G1 X82.555 Y5.664 E331.32505
G1 X82.097 Y5.385 E331.35181
G1 X81.911 Y5.282 E331.36241
G1 X81.437 Y5.052 E331.3887
G1 X81.408 Y5.04 E331.39026
G1 X92.93 Y16.563 E332.20324
G1 X92.974 Y16.658 E332.20846
G1 X93.055 Y16.858 E332.21923
G1 X93.239 Y17.38 E332.24684
G1 X93.296 Y17.575 E332.25698
G1 X93.425 Y18.112 E332.28453
G1 X93.466 Y18.333 E332.29574
G1 X93.495 Y18.541 E332.30622
G1 X79.438 Y4.485 E333.29798
G1 X79.231 Y4.453 E333.30843
G1 X79.022 Y4.432 E333.31891
G1 X78.418 Y4.402 E333.34908
G1 X78.281 Y4.398 E333.35592
G1 X77.95 Y4.411 E333.37245
G1 X93.566 Y20.027 E334.47424
G1 X93.545 Y20.434 E334.49457
G1 X93.524 Y20.641 E334.50495
G1 X93.443 Y21.179 E334.5321
G1 X93.42 Y21.295 E334.538
G1 X76.682 Y4.557 E335.71895
G1 X76.17 Y4.679 E335.74521
G1 X75.961 Y4.741 E335.75609
G1 X75.584 Y4.874 E335.77603
G1 X93.104 Y22.393 E337.01213
G1 X93.017 Y22.628 E337.02463
G1 X92.925 Y22.849 E337.03657
G1 X92.695 Y23.323 E337.06286
G1 X92.669 Y23.372 E337.06563
G1 X74.606 Y5.309 E338.34007
G1 X74.559 Y5.333 E338.3427
G1 X74.104 Y5.603 E338.3691
G1 X73.901 Y5.738 E338.38126
G1 X73.739 Y5.857 E338.39129
G1 X92.122 Y24.24 E339.68831
G1 X91.864 Y24.577 E339.70948
G1 X91.705 Y24.767 E339.72184
G1 X91.479 Y25.011 E339.73844
G1 X72.967 Y6.499 E341.04456
G1 X72.853 Y6.6 E341.05216
G1 X72.254 Y7.2 E341.09445
G1 X90.779 Y25.725 E342.40149
G1 X90.071 Y26.432 E342.45141
G1 X71.547 Y7.907 E343.75841
G1 X70.84 Y8.614 E343.8083
G1 X89.364 Y27.139 E345.1153
G1 X88.657 Y27.846 E345.16518
G1 X70.132 Y9.321 E346.47222
G1 X69.425 Y10.028 E346.5221
G1 X87.95 Y28.553 E347.82914
G1 X87.243 Y29.26 E347.87903
G1 X68.718 Y10.736 E349.18603
G1 X68.011 Y11.443 E349.23591
G1 X86.536 Y29.967 E350.54292
G1 X85.829 Y30.674 E350.5928
G1 X67.304 Y12.15 E351.8998
G1 X66.597 Y12.857 E351.94968
G1 X85.122 Y31.382 E353.25672
G1 X84.414 Y32.088 E353.30661
G1 X65.889 Y13.563 E354.61364
G1 X65.182 Y14.27 E354.66353
G1 X83.707 Y32.795 E355.97057
G1 X83 Y33.502 E356.02045
G1 X64.475 Y14.977 E357.32749
G1 X63.768 Y15.685 E357.37741
G1 X82.293 Y34.209 E358.68441
G1 X81.585 Y34.916 E358.73433
G1 X63.061 Y16.392 E360.0413
G1 X62.354 Y17.099 E360.09118
G1 X80.878 Y35.624 E361.39818
G1 X80.171 Y36.331 E361.44806
G1 X61.646 Y17.806 E362.7551
G1 X60.939 Y18.513 E362.80499
G1 X79.464 Y37.038 E364.11202
G1 X78.756 Y37.744 E364.16191
G1 X60.232 Y19.22 E365.46888
G1 X60.026 Y19.425 E365.48337
