;FilamentType:PLA
;MachineType:MP Cadet
;Extruder0Temperature:190
;BedTemperature:40
;InfillDensity:10
;FLAVOR:Marlin
;TIME:15062
;FilamentUsed: 7836.07
;Layer height: 0.1
;MINX:3.889
;MINY:10.264
;MINZ:0.3
;MAXX:98.518
;MAXY:108.541
;MAXZ:25
;Generated with Cura_SteamEngine 4.3.0
M82 ;absolute extrusion mode
;(**** start.gcode for Cadet****)
M104 S150
G28 Z
G28 X Y; Home extruder
G1 X55 Y55 F1000
G1 Z10 F200
G29
G1 Z15 F100
M107 ; Turn off fan
G90 ; Absolute positioning
M82 ; Extruder in absolute mode
M109 S215
G92 E0 ; Reset extruder position
G1 X90 Y6 Z0.27 F2000
G1 X20 Y6 Z0.27 E15 F1000 
G92 E0 ; Reset extruder position

M203 Z5
G92 E0
G92 E0
G1 F2100 E-3
;LAYER_COUNT:248
;LAYER:0
M107
G0 F3600 X82.449 Y58.176 Z0.3
;TYPE:SUPPORT
G1 F2100 E0
G1 F1800 X84.015 Y59.889 E0.11
G1 X84.534 Y62.155 E0.22018
G1 X83.867 Y64.395 E0.33095
G1 X82.188 Y66.011 E0.4414
G1 X79.934 Y66.589 E0.55169
G1 X77.655 Y65.954 E0.66382
G1 X76.013 Y64.309 E0.77398
G1 X75.394 Y62.068 E0.88417
G1 X75.945 Y59.827 E0.99355
G1 X77.523 Y58.151 E1.10265
G1 X80.084 Y57.451 E1.22848
G1 X82.449 Y58.176 E1.34572
G0 F3600 X82.677 Y58.664
G1 F1800 X82.677 Y65.318 E1.66109
G0 F3600 X83.814 Y64.008
G1 F1800 X76.096 Y64.008 E2.02689
G0 F3600 X77.343 Y65.415
G1 F1800 X77.343 Y58.575 E2.35108
G0 F3600 X77.25 Y58.674
G1 F1800 X82.688 Y58.674 E2.60882
G0 F3600 X80.01 Y57.636
G1 F1800 X80.01 Y66.405 E3.02443
G0 F3600 X84.184 Y61.341
G1 F1800 X75.738 Y61.341 E3.42473
G1 F2100 E0.42473
;MESH:CPAP Part R??ckwand_links.stl
G0 F3600 X77.394 Y57.941
G0 X76.719 Y56.816
G0 X80.108 Y55.791
G0 X80.107 Y55.89
;TYPE:WALL-INNER
G1 F2100 E3.42473
G1 F1800 X76.719 Y56.816 E3.5912
G1 X74.584 Y59.085 E3.73886
G1 X73.843 Y62.09 E3.88555
G1 X74.672 Y65.089 E4.03302
G1 X76.872 Y67.293 E4.18062
G1 X79.781 Y68.104 E4.32375
G1 X80.061 Y68.105 E4.33702
G1 X82.791 Y67.406 E4.47059
G1 X83.047 Y67.266 E4.48442
G1 X85.073 Y65.315 E4.61772
G1 X85.232 Y65.072 E4.63149
G1 X86.036 Y62.372 E4.76501
G1 X86.056 Y62.082 E4.77879
G1 X85.426 Y59.331 E4.91255
G1 X85.298 Y59.07 E4.92632
G1 X83.415 Y57.008 E5.05867
G1 X83.217 Y56.843 E5.07089
G1 X80.107 Y55.89 E5.22505
G0 F3600 X80.108 Y55.791
G0 X4.436 Y10.875
G0 X4.338 Y10.873
G1 F1800 X4.341 Y10.674 E5.23449
G1 X4.54 Y10.679 E5.24058
G1 X56.676 Y12.004 E7.7124
G1 X97.906 Y13.052 E9.66715
G1 X98.105 Y13.057 E9.67659
G1 X98.1 Y13.257 E9.68607
G1 X98.068 Y14.321 E9.73652
G1 X97.993 Y16.21 E9.82612
G1 X97.898 Y18.127 E9.91709
G1 X97.788 Y20.015 E10.00673
G1 X97.659 Y21.906 E10.09656
G1 X97.508 Y23.844 E10.18869
G1 X97.338 Y25.783 E10.28095
G1 X97.153 Y27.656 E10.37015
G1 X96.942 Y29.61 E10.4633
G1 X96.723 Y31.464 E10.55178
G1 X96.483 Y33.342 E10.64152
G1 X96.214 Y35.29 E10.73472
G1 X95.932 Y37.171 E10.82487
G1 X95.633 Y39.05 E10.91504
G1 X95.307 Y40.965 E11.00711
G1 X94.959 Y42.88 E11.09936
G1 X94.606 Y44.717 E11.18802
G1 X94.228 Y46.572 E11.27774
G1 X93.814 Y48.488 E11.37065
G1 X93.397 Y50.325 E11.45993
G1 X92.943 Y52.216 E11.5521
G1 X92.469 Y54.095 E11.64395
G1 X91.987 Y55.913 E11.73309
G1 X91.482 Y57.729 E11.82243
G1 X90.932 Y59.613 E11.91545
G1 X90.382 Y61.41 E12.00452
G1 X89.783 Y63.276 E12.09741
G1 X89.184 Y65.058 E12.18651
G1 X88.533 Y66.91 E12.27955
G1 X87.886 Y68.665 E12.3682
G1 X87.207 Y70.429 E12.45779
G1 X86.482 Y72.225 E12.54958
G1 X85.728 Y74.012 E12.64151
G1 X84.968 Y75.734 E12.73072
G1 X84.155 Y77.49 E12.82244
G1 X83.309 Y79.233 E12.91426
G1 X82.462 Y80.898 E13.0028
G1 X81.574 Y82.56 E13.09211
G1 X80.622 Y84.257 E13.18433
G1 X79.643 Y85.917 E13.27567
G1 X78.649 Y87.513 E13.36479
G1 X77.592 Y89.126 E13.45619
G1 X76.485 Y90.722 E13.54825
G1 X75.386 Y92.216 E13.63615
G1 X74.231 Y93.695 E13.72509
G1 X72.984 Y95.196 E13.81758
G1 X71.705 Y96.634 E13.90879
G1 X70.428 Y97.971 E13.99642
G1 X69.024 Y99.331 E14.08907
G1 X67.638 Y100.566 E14.17705
G1 X66.199 Y101.741 E14.2651
G1 X64.615 Y102.912 E14.35846
G1 X63.083 Y103.924 E14.44549
G1 X61.417 Y104.895 E14.53688
G1 X59.703 Y105.759 E14.62785
G1 X58.019 Y106.473 E14.71455
G1 X56.267 Y107.079 E14.80241
G1 X54.406 Y107.574 E14.89368
G1 X52.561 Y107.91 E14.98256
G1 X50.702 Y108.098 E15.07112
G1 X48.828 Y108.136 E15.15996
G1 X46.98 Y108.016 E15.24773
G1 X45.13 Y107.743 E15.33636
G1 X43.299 Y107.321 E15.42542
G1 X41.499 Y106.755 E15.51485
G1 X39.732 Y106.052 E15.60498
G1 X38.051 Y105.243 E15.6934
G1 X36.435 Y104.33 E15.78137
G1 X34.867 Y103.316 E15.86987
G1 X33.31 Y102.181 E15.96119
G1 X31.825 Y100.971 E16.05198
G1 X30.415 Y99.704 E16.14183
G1 X29.091 Y98.403 E16.2298
G1 X27.798 Y97.025 E16.31937
G1 X26.526 Y95.561 E16.41128
G1 X25.35 Y94.102 E16.5001
G1 X24.182 Y92.551 E16.59213
G1 X23.091 Y91.004 E16.68185
G1 X22.052 Y89.434 E16.77108
G1 X21.061 Y87.844 E16.85987
G1 X20.073 Y86.168 E16.95208
G1 X19.144 Y84.495 E17.04278
G1 X18.241 Y82.779 E17.13469
G1 X17.412 Y81.114 E17.22284
G1 X16.604 Y79.403 E17.31252
G1 X15.802 Y77.617 E17.40531
G1 X15.066 Y75.888 E17.49438
G1 X14.341 Y74.094 E17.58609
G1 X13.646 Y72.288 E17.6778
G1 X13.004 Y70.525 E17.76673
G1 X12.386 Y68.743 E17.85612
G1 X11.772 Y66.88 E17.94909
G1 X11.205 Y65.067 E18.03912
G1 X10.659 Y63.229 E18.13
G1 X10.145 Y61.401 E18.22
G1 X9.638 Y59.509 E18.31284
G1 X9.18 Y57.687 E18.40188
G1 X8.742 Y55.852 E18.49129
G1 X8.309 Y53.939 E18.58425
G1 X7.918 Y52.095 E18.67359
G1 X7.537 Y50.192 E18.76558
G1 X7.18 Y48.283 E18.85762
G1 X6.855 Y46.436 E18.94651
G1 X6.549 Y44.573 E19.03599
G1 X6.256 Y42.65 E19.12818
G1 X5.987 Y40.742 E19.21951
G1 X5.735 Y38.817 E19.31152
G1 X5.513 Y36.957 E19.40031
G1 X5.309 Y35.073 E19.49012
G1 X5.119 Y33.14 E19.58218
G1 X4.949 Y31.225 E19.6733
G1 X4.799 Y29.29 E19.76528
G1 X4.673 Y27.415 E19.85435
G1 X4.564 Y25.531 E19.94379
G1 X4.47 Y23.56 E20.03732
G1 X4.398 Y21.659 E20.12748
G1 X4.345 Y19.761 E20.21747
G1 X4.308 Y17.792 E20.31081
G1 X4.292 Y15.924 E20.39935
G1 X4.292 Y14.026 E20.48931
G1 X4.312 Y12.07 E20.58202
G1 X4.337 Y10.874 E20.63872
G1 X4.338 Y10.873 E20.63878
G0 F3600 X3.946 Y10.463
;TYPE:WALL-OUTER
G1 F1800 X3.949 Y10.264 E20.64822
G1 X4.148 Y10.269 E20.65431
G1 X56.686 Y11.604 E23.14519
G1 X98.318 Y12.662 E25.119
G1 X98.517 Y12.667 E25.12844
G1 X98.512 Y12.867 E25.13792
G1 X98.468 Y14.337 E25.20762
G1 X98.393 Y16.23 E25.29741
G1 X98.298 Y18.147 E25.38838
G1 X98.187 Y20.042 E25.47835
G1 X98.058 Y21.937 E25.56837
G1 X97.907 Y23.875 E25.6605
G1 X97.736 Y25.822 E25.75314
G1 X97.551 Y27.699 E25.84253
G1 X97.34 Y29.653 E25.93568
G1 X97.12 Y31.515 E26.02455
G1 X96.879 Y33.397 E26.11447
G1 X96.609 Y35.349 E26.20787
G1 X96.327 Y37.234 E26.2982
G1 X96.027 Y39.117 E26.38858
G1 X95.7 Y41.036 E26.48084
G1 X95.352 Y42.956 E26.57332
G1 X94.998 Y44.797 E26.66218
G1 X94.619 Y46.656 E26.7521
G1 X94.204 Y48.577 E26.84524
G1 X93.786 Y50.418 E26.93472
G1 X93.331 Y52.314 E27.02713
G1 X92.856 Y54.198 E27.11922
G1 X92.374 Y56.016 E27.20836
G1 X91.866 Y57.841 E27.29815
G1 X91.316 Y59.725 E27.39117
G1 X90.763 Y61.532 E27.48074
G1 X90.162 Y63.404 E27.57392
G1 X89.561 Y65.191 E27.66328
G1 X88.908 Y67.048 E27.75658
G1 X88.259 Y68.809 E27.84553
G1 X87.578 Y70.579 E27.93541
G1 X86.851 Y72.381 E28.02751
G1 X86.094 Y74.174 E28.11975
G1 X85.331 Y75.902 E28.20928
G1 X84.515 Y77.665 E28.30136
G1 X83.666 Y79.414 E28.3935
G1 X82.815 Y81.087 E28.48246
G1 X81.923 Y82.756 E28.57215
G1 X80.971 Y84.453 E28.66438
G1 X79.982 Y86.128 E28.75657
G1 X78.984 Y87.732 E28.84611
G1 X77.921 Y89.354 E28.93802
G1 X76.814 Y90.95 E29.03008
G1 X75.701 Y92.462 E29.11906
G1 X74.539 Y93.951 E29.20858
G1 X73.292 Y95.452 E29.30107
G1 X72.004 Y96.9 E29.39292
G1 X70.706 Y98.258 E29.48196
G1 X69.29 Y99.63 E29.5754
G1 X67.899 Y100.87 E29.66372
G1 X66.437 Y102.063 E29.75316
G1 X64.852 Y103.235 E29.84659
G1 X63.291 Y104.266 E29.93525
G1 X61.613 Y105.244 E30.0273
G1 X59.873 Y106.121 E30.11966
G1 X58.158 Y106.848 E30.20794
G1 X56.379 Y107.464 E30.29717
G1 X54.493 Y107.965 E30.38966
G1 X52.624 Y108.306 E30.4797
G1 X50.725 Y108.498 E30.57017
G1 X48.822 Y108.536 E30.66038
G1 X46.933 Y108.414 E30.7501
G1 X45.055 Y108.137 E30.84007
G1 X43.192 Y107.707 E30.93069
G1 X41.365 Y107.133 E31.02145
G1 X39.584 Y106.424 E31.11231
G1 X37.859 Y105.594 E31.20304
G1 X36.227 Y104.672 E31.29188
G1 X34.64 Y103.645 E31.38147
G1 X33.064 Y102.497 E31.47388
G1 X31.565 Y101.275 E31.56554
G1 X30.148 Y100.002 E31.65582
G1 X28.799 Y98.677 E31.74544
G1 X27.506 Y97.299 E31.835
G1 X26.224 Y95.823 E31.92766
G1 X25.039 Y94.353 E32.01715
G1 X23.855 Y92.782 E32.11039
G1 X22.764 Y91.235 E32.20011
G1 X21.718 Y89.655 E32.28992
G1 X20.716 Y88.047 E32.37972
G1 X19.728 Y86.371 E32.47193
G1 X18.794 Y84.689 E32.56311
G1 X17.887 Y82.965 E32.65544
G1 X17.05 Y81.285 E32.7444
G1 X16.242 Y79.574 E32.83408
G1 X15.437 Y77.781 E32.92724
G1 X14.698 Y76.045 E33.01666
G1 X13.97 Y74.244 E33.10873
G1 X13.271 Y72.425 E33.20109
G1 X12.628 Y70.662 E33.29003
G1 X12.008 Y68.874 E33.37973
G1 X11.392 Y67.005 E33.473
G1 X10.823 Y65.186 E33.56333
G1 X10.276 Y63.343 E33.65444
G1 X9.76 Y61.509 E33.74474
G1 X9.251 Y59.607 E33.83806
G1 X8.792 Y57.785 E33.92711
G1 X8.353 Y55.945 E34.01677
G1 X7.919 Y54.027 E34.10997
G1 X7.527 Y52.178 E34.19956
G1 X7.145 Y50.271 E34.29173
G1 X6.787 Y48.357 E34.38402
G1 X6.461 Y46.505 E34.47315
G1 X6.154 Y44.638 E34.56283
G1 X5.861 Y42.71 E34.65525
G1 X5.591 Y40.798 E34.74677
G1 X5.338 Y38.869 E34.83898
G1 X5.116 Y37 E34.92819
G1 X4.911 Y35.116 E35.01801
G1 X4.721 Y33.179 E35.11025
G1 X4.551 Y31.256 E35.20175
G1 X4.4 Y29.321 E35.29374
G1 X4.274 Y27.442 E35.383
G1 X4.165 Y25.55 E35.47282
G1 X4.07 Y23.579 E35.56634
G1 X3.998 Y21.674 E35.6567
G1 X3.945 Y19.772 E35.74688
G1 X3.908 Y17.8 E35.84036
G1 X3.892 Y15.924 E35.92928
G1 X3.892 Y14.022 E36.01942
G1 X3.912 Y12.062 E36.11232
G1 X3.945 Y10.464 E36.18808
G1 X3.946 Y10.463 E36.18815
G0 F3600 X3.949 Y10.264
G0 X3.95 Y10.264
G0 X4.41 Y10.746
G0 X80.246 Y55.829
G0 X80.101 Y56.306
G1 F1800 X76.933 Y57.172 E36.3438
G1 X74.947 Y59.283 E36.48117
G1 X74.256 Y62.084 E36.61791
G1 X75.029 Y64.881 E36.75545
G1 X77.081 Y66.936 E36.89309
G1 X79.837 Y67.704 E37.02869
G1 X80.012 Y67.705 E37.03698
G1 X82.643 Y67.031 E37.16571
G1 X82.808 Y66.941 E37.17461
G1 X84.763 Y65.059 E37.30323
G1 X84.865 Y64.902 E37.3121
G1 X85.64 Y62.3 E37.44078
G1 X85.653 Y62.113 E37.44966
G1 X85.046 Y59.465 E37.57842
G1 X84.964 Y59.297 E37.58728
G1 X83.138 Y57.298 E37.71561
G1 X83.023 Y57.202 E37.72271
G1 X80.101 Y56.306 E37.86756
G0 F3600 X79.909 Y56.358
G0 X80.113 Y55.484
;TYPE:SKIN
G1 F1800 X76.51 Y56.469 E38.04459
G1 X74.229 Y58.892 E38.20231
G1 X73.44 Y62.096 E38.35871
G1 X74.323 Y65.292 E38.51586
G1 X76.669 Y67.642 E38.67324
G1 X79.727 Y68.494 E38.8237
G1 X80.11 Y68.495 E38.84185
G1 X82.935 Y67.772 E38.98006
G1 X83.28 Y67.583 E38.9987
G1 X85.375 Y65.565 E39.13657
G1 X85.589 Y65.238 E39.15509
G1 X86.422 Y62.442 E39.29336
G1 X86.45 Y62.051 E39.31194
G1 X85.796 Y59.2 E39.45058
G1 X85.624 Y58.848 E39.46915
G1 X83.685 Y56.725 E39.60542
G1 X83.406 Y56.493 E39.62262
G1 X80.113 Y55.484 E39.78585
G0 F3600 X90.56 Y59.498
G1 F1800 X90.011 Y61.291 E39.87473
G1 X89.442 Y63.065 E39.96303
G1 X88.816 Y64.929 E40.05622
G1 X88.167 Y66.775 E40.14896
G1 X87.522 Y68.525 E40.23736
G1 X86.816 Y70.357 E40.33041
G1 X86.123 Y72.073 E40.41813
G1 X85.371 Y73.854 E40.50975
G1 X84.577 Y75.653 E40.60295
G1 X83.804 Y77.32 E40.69004
G1 X82.96 Y79.059 E40.78166
G1 X82.119 Y80.714 E40.86965
G1 X81.234 Y82.369 E40.9586
G1 X80.286 Y84.058 E41.0504
G1 X79.309 Y85.714 E41.14152
G1 X78.32 Y87.303 E41.23023
G1 X77.272 Y88.904 E41.32092
G1 X76.171 Y90.49 E41.41243
G1 X75.078 Y91.976 E41.49986
G1 X73.927 Y93.45 E41.5885
G1 X72.688 Y94.942 E41.68042
G1 X71.418 Y96.37 E41.77099
G1 X70.157 Y97.691 E41.85755
G1 X68.759 Y99.045 E41.94979
G1 X67.392 Y100.264 E42.0366
G1 X65.967 Y101.427 E42.12377
G1 X64.392 Y102.591 E42.2166
G1 X62.877 Y103.592 E42.30266
G1 X61.232 Y104.552 E42.39293
G1 X59.532 Y105.408 E42.48314
G1 X57.885 Y106.106 E42.56792
G1 X56.15 Y106.707 E42.65495
G1 X54.324 Y107.192 E42.74449
G1 X52.502 Y107.524 E42.83227
G1 X50.68 Y107.708 E42.91906
G1 X48.845 Y107.746 E43.00605
G1 X47.013 Y107.626 E43.09307
G1 X45.201 Y107.359 E43.17988
G1 X43.401 Y106.944 E43.26743
G1 X41.637 Y106.389 E43.35507
G1 X39.879 Y105.69 E43.44474
G1 X38.22 Y104.892 E43.53199
G1 X36.647 Y104.002 E43.61765
G1 X35.093 Y102.996 E43.70539
G1 X33.54 Y101.865 E43.79645
G1 X32.079 Y100.675 E43.88576
G1 X30.682 Y99.419 E43.97479
G1 X29.364 Y98.124 E44.06237
G1 X28.083 Y96.758 E44.15113
G1 X26.825 Y95.31 E44.24204
G1 X25.654 Y93.857 E44.33048
G1 X24.494 Y92.317 E44.42186
G1 X23.413 Y90.784 E44.51077
G1 X22.38 Y89.223 E44.59949
G1 X21.394 Y87.641 E44.68784
G1 X20.409 Y85.969 E44.77981
G1 X19.485 Y84.306 E44.86998
G1 X18.588 Y82.601 E44.96129
G1 X17.761 Y80.94 E45.04923
G1 X16.957 Y79.237 E45.13849
G1 X16.157 Y77.457 E45.23098
G1 X15.425 Y75.736 E45.31962
G1 X14.732 Y74.022 E45.40725
G1 X14.011 Y72.151 E45.50228
G1 X13.371 Y70.392 E45.591
G1 X12.755 Y68.615 E45.68014
G1 X12.142 Y66.758 E45.77282
G1 X11.577 Y64.95 E45.8626
G1 X11.033 Y63.118 E45.95318
G1 X10.521 Y61.296 E46.04288
G1 X10.015 Y59.408 E46.13552
G1 X9.559 Y57.594 E46.22417
G1 X9.122 Y55.762 E46.31343
G1 X8.689 Y53.853 E46.40621
G1 X8.3 Y52.015 E46.49525
G1 X7.942 Y50.232 E46.58145
G1 X7.564 Y48.211 E46.67889
G1 X7.239 Y46.368 E46.76759
G1 X6.951 Y44.621 E46.85151
G1 X6.642 Y42.591 E46.94883
G1 X6.373 Y40.687 E47.03997
G1 X6.136 Y38.883 E47.1262
G1 X5.901 Y36.91 E47.22038
G1 X5.697 Y35.031 E47.30996
G1 X5.507 Y33.101 E47.40187
G1 X5.337 Y31.19 E47.4928
G1 X5.196 Y29.381 E47.5788
G1 X5.063 Y27.389 E47.67343
G1 X4.954 Y25.508 E47.76273
G1 X4.86 Y23.541 E47.85606
G1 X4.788 Y21.644 E47.94603
G1 X4.735 Y19.75 E48.03584
G1 X4.698 Y17.784 E48.12903
G1 X4.682 Y15.924 E48.21719
G1 X4.682 Y14.03 E48.30696
G1 X4.702 Y12.078 E48.39948
G1 X4.723 Y11.074 E48.44708
G1 X56.666 Y12.394 E50.90975
G1 X97.703 Y13.437 E52.85535
G1 X97.678 Y14.305 E52.89651
G1 X97.603 Y16.191 E52.98597
G1 X97.508 Y18.104 E53.07675
G1 X97.398 Y19.988 E53.16619
G1 X97.263 Y21.984 E53.26101
G1 X97.12 Y23.81 E53.34782
G1 X96.95 Y25.744 E53.43984
G1 X96.765 Y27.615 E53.52895
G1 X96.554 Y29.565 E53.62191
G1 X96.31 Y31.631 E53.72051
G1 X96.097 Y33.289 E53.79973
G1 X95.828 Y35.232 E53.8927
G1 X95.546 Y37.11 E53.98271
G1 X95.247 Y38.989 E54.07289
G1 X94.923 Y40.895 E54.16452
G1 X94.569 Y42.844 E54.2584
G1 X94.223 Y44.641 E54.34514
G1 X93.838 Y46.532 E54.4366
G1 X93.433 Y48.404 E54.52738
G1 X93.018 Y50.234 E54.61632
G1 X92.564 Y52.123 E54.7084
G1 X92.093 Y53.995 E54.79989
G1 X91.615 Y55.794 E54.88811
G1 X91.108 Y57.62 E54.97793
G1 X90.56 Y59.498 E55.07065
G0 F3600 X97.512 Y13.79
G1 F1800 X97.33 Y13.608 E55.08285
G0 F3600 X96.749 Y13.594
G1 F1800 X97.495 Y14.34 E55.13285
G0 F3600 X97.474 Y14.884
G1 F1800 X96.169 Y13.579 E55.22032
G0 F3600 X95.588 Y13.564
G1 F1800 X97.452 Y15.428 E55.34526
G0 F3600 X97.43 Y15.972
G1 F1800 X95.008 Y13.549 E55.50764
G0 F3600 X94.427 Y13.534
G1 F1800 X97.406 Y16.513 E55.70731
G0 F3600 X97.379 Y17.051
G1 F1800 X93.847 Y13.52 E55.94402
G0 F3600 X93.267 Y13.505
G1 F1800 X97.352 Y17.59 E56.21783
G0 F3600 X97.325 Y18.129
G1 F1800 X92.686 Y13.49 E56.52877
G0 F3600 X92.106 Y13.476
G1 F1800 X97.294 Y18.664 E56.87651
G0 F3600 X97.263 Y19.198
G1 F1800 X91.525 Y13.461 E57.26108
G0 F3600 X90.945 Y13.446
G1 F1800 X97.232 Y19.733 E57.68248
G0 F3600 X97.198 Y20.264
G1 F1800 X90.364 Y13.431 E58.14052
G0 F3600 X89.784 Y13.416
G1 F1800 X97.162 Y20.794 E58.63504
G0 F3600 X97.126 Y21.324
G1 F1800 X89.204 Y13.402 E59.16604
G0 F3600 X88.623 Y13.387
G1 F1800 X97.09 Y21.854 E59.73356
G0 F3600 X97.051 Y22.381
G1 F1800 X88.043 Y13.372 E60.33738
G0 F3600 X87.462 Y13.357
G1 F1800 X97.01 Y22.905 E60.97736
G0 F3600 X96.969 Y23.429
G1 F1800 X86.882 Y13.343 E61.65343
G0 F3600 X86.301 Y13.328
G1 F1800 X96.926 Y23.953 E62.3656
G0 F3600 X96.88 Y24.472
G1 F1800 X85.721 Y13.313 E63.11356
G0 F3600 X85.14 Y13.298
G1 F1800 X96.835 Y24.993 E63.89745
G0 F3600 X96.789 Y25.513
G1 F1800 X84.56 Y13.284 E64.71713
G0 F3600 X83.98 Y13.269
G1 F1800 X96.74 Y26.03 E65.57244
G0 F3600 X96.689 Y26.544
G1 F1800 X83.399 Y13.254 E66.46324
G0 F3600 X82.819 Y13.239
G1 F1800 X96.638 Y27.059 E67.38952
G0 F3600 X96.587 Y27.574
G1 F1800 X82.238 Y13.225 E68.3513
