;FilamentType:PLA
;MachineType:MP Cadet
;Extruder0Temperature:200
;BedTemperature:40
;InfillDensity:10
;FLAVOR:Marlin
;TIME:10794
;FilamentUsed: 8198.86
;Layer height: 0.15
;MINX:2.7
;MINY:11.45
;MINZ:0.3
;MAXX:97.3
;MAXY:108.55
;MAXZ:24.9
;Generated with Cura_SteamEngine 4.3.0
M82 ;absolute extrusion mode
;(**** start.gcode for Cadet****)
M104 S150
G28 Z
G28 X Y; Home extruder
G1 X55 Y55 F1000
G1 Z10 F200
G29
G1 Z15 F100
M107 ; Turn off fan
G90 ; Absolute positioning
M82 ; Extruder in absolute mode
M109 S215
G92 E0 ; Reset extruder position
G1 X90 Y6 Z0.27 F2000
G1 X20 Y6 Z0.27 E15 F1000 
G92 E0 ; Reset extruder position

M203 Z5
G92 E0
G92 E0
G1 F2100 E-3
;LAYER_COUNT:165
;LAYER:0
M107
G0 F3600 X82.052 Y55.181 Z0.3
;TYPE:SUPPORT
G1 F2100 E0
G1 F1800 X83.586 Y56.725 E0.10316
G1 X84.117 Y58.777 E0.20362
G1 X83.555 Y60.828 E0.30441
G1 X82.008 Y62.352 E0.40733
G1 X79.947 Y62.875 E0.50811
G1 X77.918 Y62.311 E0.60792
G1 X76.382 Y60.73 E0.7124
G1 X75.878 Y58.652 E0.81374
G1 X76.46 Y56.648 E0.91264
G1 X78.1 Y55.095 E1.01969
G1 X79.992 Y54.628 E1.11206
G1 X82.052 Y55.181 E1.21315
G0 F3600 X82.649 Y56.007
G1 F1800 X77.369 Y56.007 E1.4634
G0 F3600 X77.343 Y56.032
G1 F1800 X77.343 Y61.49 E1.72208
G0 F3600 X77.198 Y61.341
G1 F1800 X82.806 Y61.341 E1.98788
G0 F3600 X82.677 Y61.47
G1 F1800 X82.677 Y56.037 E2.24538
G0 F3600 X83.925 Y58.674
G1 F1800 X76.048 Y58.674 E2.61872
G0 F3600 X80.01 Y54.799
G1 F1800 X80.01 Y62.694 E2.99291
G1 F2100 E-0.00709
;MESH:CPAP Part R??ckwand_rechts.stl
G0 F3600 X75.633 Y58.645
G0 X74.403 Y58.355
G0 X75.048 Y55.787
G0 X75.133 Y55.839
;TYPE:WALL-INNER
G1 F2100 E2.99291
G1 F1800 X74.403 Y58.355 E3.11707
G1 X74.335 Y58.647 E3.13128
G1 X74.966 Y61.251 E3.25827
G1 X75.072 Y61.533 E3.27255
G1 X76.974 Y63.49 E3.40189
G1 X77.211 Y63.672 E3.41605
G1 X79.738 Y64.374 E3.54036
G1 X80.023 Y64.404 E3.55394
G1 X82.62 Y63.746 E3.68092
G1 X82.916 Y63.562 E3.69744
G1 X84.895 Y61.61 E3.82918
G1 X85.67 Y58.786 E3.96798
G1 X84.937 Y55.958 E4.10644
G1 X82.832 Y53.838 E4.24804
G1 X80.006 Y53.08 E4.38671
G1 X77.356 Y53.734 E4.51608
G1 X75.133 Y55.839 E4.66118
G0 F3600 X75.048 Y55.787
G0 X74.295 Y58.647
G0 X75.039 Y61.554
G0 X96.795 Y107.949
G0 X96.896 Y107.949
G1 F1800 X96.897 Y107.95 E4.66125
G1 X96.897 Y108.15 E4.67073
G1 X96.697 Y108.15 E4.67686
G1 X96.696 Y108.15 E4.67691
G1 X3.303 Y108.15 E9.10334
G1 X3.103 Y108.15 E9.11282
G1 X3.103 Y107.95 E9.11895
G1 X3.107 Y107.002 E9.16389
G1 X3.135 Y105.022 E9.25774
G1 X3.18 Y103.114 E9.3482
G1 X3.243 Y101.204 E9.43877
G1 X3.324 Y99.293 E9.52942
G1 X3.424 Y97.39 E9.61974
G1 X3.542 Y95.482 E9.71035
G1 X3.68 Y93.58 E9.80073
G1 X3.836 Y91.673 E9.89142
G1 X4.01 Y89.776 E9.9817
G1 X4.205 Y87.877 E10.07218
G1 X4.418 Y85.975 E10.16289
G1 X4.65 Y84.078 E10.25347
G1 X4.901 Y82.191 E10.34369
G1 X5.173 Y80.302 E10.43415
G1 X5.465 Y78.413 E10.52474
G1 X5.776 Y76.533 E10.61506
G1 X6.109 Y74.652 E10.70559
G1 X6.463 Y72.774 E10.79617
G1 X6.837 Y70.904 E10.88656
G1 X7.232 Y69.038 E10.97696
G1 X7.65 Y67.175 E11.06745
G1 X8.089 Y65.319 E11.15784
G1 X8.552 Y63.468 E11.24828
G1 X9.04 Y61.622 E11.33877
G1 X9.55 Y59.779 E11.42941
G1 X10.083 Y57.948 E11.51979
G1 X10.64 Y56.128 E11.61
G1 X11.223 Y54.313 E11.70035
G1 X11.834 Y52.507 E11.79071
G1 X12.574 Y50.428 E11.89531
G1 X13.244 Y48.638 E11.98589
G1 X13.938 Y46.87 E12.07591
G1 X14.669 Y45.103 E12.16654
G1 X15.422 Y43.36 E12.25653
G1 X16.212 Y41.622 E12.34702
G1 X17.03 Y39.909 E12.43699
G1 X17.886 Y38.206 E12.52733
G1 X18.779 Y36.515 E12.61796
G1 X19.702 Y34.856 E12.70794
G1 X20.662 Y33.22 E12.79784
G1 X21.669 Y31.597 E12.88837
G1 X22.706 Y30.015 E12.97802
G1 X23.79 Y28.457 E13.06798
G1 X24.927 Y26.921 E13.15856
G1 X26.094 Y25.442 E13.24785
G1 X27.33 Y23.976 E13.33873
G1 X28.587 Y22.59 E13.42741
G1 X29.921 Y21.226 E13.51784
G1 X31.29 Y19.936 E13.60699
G1 X32.834 Y18.612 E13.70339
G1 X34.32 Y17.458 E13.79256
G1 X35.852 Y16.392 E13.88102
G1 X37.476 Y15.393 E13.97139
G1 X39.131 Y14.506 E14.06039
G1 X40.831 Y13.734 E14.14888
G1 X42.588 Y13.078 E14.23777
G1 X44.387 Y12.554 E14.32657
G1 X46.211 Y12.171 E14.41491
G1 X48.001 Y11.943 E14.50043
G1 X49.807 Y11.859 E14.58612
G1 X51.71 Y11.922 E14.67637
G1 X53.645 Y12.146 E14.76869
G1 X55.482 Y12.519 E14.85753
G1 X57.287 Y13.036 E14.94652
G1 X59.045 Y13.682 E15.03529
G1 X60.767 Y14.456 E15.12477
G1 X62.423 Y15.334 E15.21361
G1 X64.031 Y16.317 E15.30293
G1 X65.582 Y17.388 E15.39227
G1 X67.076 Y18.54 E15.48168
G1 X68.533 Y19.78 E15.57236
G1 X69.901 Y21.053 E15.66093
G1 X71.26 Y22.429 E15.75259
G1 X72.536 Y23.825 E15.84223
G1 X73.771 Y25.277 E15.93257
G1 X74.949 Y26.761 E16.02237
G1 X76.084 Y28.283 E16.11236
G1 X77.175 Y29.842 E16.20255
G1 X78.226 Y31.433 E16.29292
G1 X79.234 Y33.05 E16.38323
G1 X80.207 Y34.7 E16.47402
G1 X81.135 Y36.357 E16.56403
G1 X82.029 Y38.043 E16.65448
G1 X82.9 Y39.771 E16.74619
G1 X83.725 Y41.49 E16.83656
G1 X84.518 Y43.228 E16.92711
G1 X85.279 Y44.98 E17.01764
G1 X86.01 Y46.746 E17.10823
G1 X86.712 Y48.526 E17.19892
G1 X87.385 Y50.315 E17.28951
G1 X88.029 Y52.117 E17.38021
G1 X88.648 Y53.932 E17.47109
G1 X89.238 Y55.747 E17.56155
G1 X89.803 Y57.574 E17.65219
G1 X90.344 Y59.411 E17.74295
G1 X90.861 Y61.257 E17.83381
G1 X91.352 Y63.104 E17.92439
G1 X91.821 Y64.963 E18.01526
G1 X92.267 Y66.821 E18.10582
G1 X92.69 Y68.69 E18.19664
G1 X93.091 Y70.563 E18.28743
G1 X93.471 Y72.443 E18.37833
G1 X93.829 Y74.322 E18.46899
G1 X94.167 Y76.212 E18.55999
G1 X94.487 Y78.117 E18.65154
G1 X94.782 Y80.009 E18.7423
G1 X95.058 Y81.907 E18.8332
G1 X95.314 Y83.805 E18.92397
G1 X95.55 Y85.707 E19.01481
G1 X95.766 Y87.611 E19.10563
G1 X95.963 Y89.518 E19.1965
G1 X96.142 Y91.426 E19.28733
G1 X96.3 Y93.335 E19.37811
G1 X96.441 Y95.247 E19.46898
G1 X96.561 Y97.16 E19.55983
G1 X96.664 Y99.074 E19.65067
G1 X96.747 Y100.99 E19.74157
G1 X96.813 Y102.905 E19.83238
G1 X96.86 Y104.822 E19.92327
G1 X96.889 Y106.738 E20.01409
G1 X96.896 Y107.949 E20.07149
G0 F3600 X97.298 Y108.349
;TYPE:WALL-OUTER
G1 F1800 X97.299 Y108.35 E20.07155
G1 X97.299 Y108.55 E20.08103
G1 X97.099 Y108.55 E20.08717
G1 X97.098 Y108.55 E20.08722
G1 X2.901 Y108.55 E24.55175
G1 X2.701 Y108.55 E24.56123
G1 X2.701 Y108.35 E24.56737
G1 X2.707 Y106.996 E24.63154
G1 X2.735 Y105.013 E24.72554
G1 X2.78 Y103.101 E24.81618
G1 X2.843 Y101.187 E24.90695
G1 X2.924 Y99.276 E24.9976
G1 X3.025 Y97.365 E25.0883
G1 X3.143 Y95.453 E25.17909
G1 X3.281 Y93.547 E25.26967
G1 X3.437 Y91.64 E25.36035
G1 X3.612 Y89.735 E25.45102
G1 X3.807 Y87.832 E25.54169
G1 X4.02 Y85.93 E25.6324
G1 X4.253 Y84.029 E25.72317
G1 X4.506 Y82.134 E25.81378
G1 X4.778 Y80.241 E25.90442
G1 X5.071 Y78.348 E25.99521
G1 X5.382 Y76.463 E26.08576
G1 X5.716 Y74.578 E26.17649
G1 X6.071 Y72.696 E26.26727
G1 X6.446 Y70.821 E26.35789
G1 X6.842 Y68.95 E26.44853
G1 X7.261 Y67.083 E26.53922
G1 X7.701 Y65.222 E26.62986
G1 X8.165 Y63.366 E26.72053
G1 X8.654 Y61.515 E26.81127
G1 X9.164 Y59.672 E26.9019
G1 X9.699 Y57.836 E26.99254
G1 X10.259 Y56.006 E27.08325
G1 X10.844 Y54.185 E27.1739
G1 X11.457 Y52.373 E27.26456
G1 X12.199 Y50.288 E27.36945
G1 X12.869 Y48.498 E27.46004
G1 X13.569 Y46.717 E27.55074
G1 X14.299 Y44.95 E27.64135
G1 X15.058 Y43.195 E27.73197
G1 X15.851 Y41.45 E27.82282
G1 X16.673 Y39.729 E27.91321
G1 X17.532 Y38.019 E28.00391
G1 X18.425 Y36.328 E28.09455
G1 X19.357 Y34.654 E28.18535
G1 X20.322 Y33.009 E28.27575
G1 X21.329 Y31.386 E28.36627
G1 X22.378 Y29.787 E28.45691
G1 X23.469 Y28.219 E28.54745
G1 X24.605 Y26.683 E28.63799
G1 X25.788 Y25.184 E28.7285
G1 X27.024 Y23.718 E28.81938
G1 X28.301 Y22.31 E28.90947
G1 X29.635 Y20.946 E28.9999
G1 X31.03 Y19.632 E29.09073
G1 X32.574 Y18.308 E29.18713
G1 X34.086 Y17.134 E29.27786
G1 X35.642 Y16.051 E29.36771
G1 X37.275 Y15.046 E29.45859
G1 X38.942 Y14.153 E29.54822
G1 X40.687 Y13.361 E29.63905
G1 X42.458 Y12.699 E29.72866
G1 X44.284 Y12.167 E29.8188
G1 X46.154 Y11.775 E29.90935
G1 X47.969 Y11.544 E29.99607
G1 X49.801 Y11.458 E30.083
G1 X51.733 Y11.522 E30.17462
G1 X53.713 Y11.752 E30.26909
G1 X55.581 Y12.131 E30.35943
G1 X57.401 Y12.652 E30.44915
G1 X59.204 Y13.315 E30.5402
G1 X60.931 Y14.091 E30.62994
G1 X62.628 Y14.99 E30.72096
G1 X64.246 Y15.979 E30.81084
G1 X65.826 Y17.071 E30.90187
G1 X67.33 Y18.23 E30.99186
G1 X68.792 Y19.475 E31.08287
G1 X70.186 Y20.772 E31.17312
G1 X71.545 Y22.148 E31.26478
G1 X72.841 Y23.566 E31.35583
G1 X74.076 Y25.018 E31.44617
G1 X75.27 Y26.522 E31.53719
G1 X76.412 Y28.054 E31.62775
G1 X77.509 Y29.622 E31.71845
G1 X78.565 Y31.221 E31.80927
G1 X79.579 Y32.847 E31.90009
G1 X80.552 Y34.497 E31.99088
G1 X81.488 Y36.17 E32.08174
G1 X82.386 Y37.863 E32.17257
G1 X83.261 Y39.598 E32.26467
G1 X84.089 Y41.324 E32.3554
G1 X84.885 Y43.069 E32.4463
G1 X85.649 Y44.827 E32.53715
G1 X86.382 Y46.599 E32.62804
G1 X87.086 Y48.385 E32.71903
G1 X87.761 Y50.18 E32.80992
G1 X88.408 Y51.988 E32.90093
G1 X89.027 Y53.803 E32.99182
G1 X89.62 Y55.629 E33.08281
G1 X90.187 Y57.461 E33.1737
G1 X90.729 Y59.303 E33.26471
G1 X91.247 Y61.154 E33.35581
G1 X91.74 Y63.006 E33.44664
G1 X92.21 Y64.87 E33.53775
G1 X92.657 Y66.733 E33.62856
G1 X93.081 Y68.606 E33.71958
G1 X93.483 Y70.484 E33.8106
G1 X93.864 Y72.368 E33.9017
G1 X94.223 Y74.252 E33.9926
G1 X94.561 Y76.142 E34.0836
G1 X94.882 Y78.055 E34.17554
G1 X95.178 Y79.952 E34.26653
G1 X95.454 Y81.853 E34.35758
G1 X95.711 Y83.756 E34.44859
G1 X95.947 Y85.662 E34.53962
G1 X96.163 Y87.57 E34.63063
G1 X96.361 Y89.481 E34.72168
G1 X96.54 Y91.393 E34.8127
G1 X96.699 Y93.306 E34.90368
G1 X96.84 Y95.222 E34.99474
G1 X96.96 Y97.139 E35.08577
G1 X97.063 Y99.057 E35.17681
G1 X97.147 Y100.976 E35.26785
G1 X97.213 Y102.895 E35.35885
G1 X97.26 Y104.816 E35.44993
G1 X97.289 Y106.736 E35.54094
G1 X97.298 Y108.349 E35.61739
G0 F3600 X97.299 Y108.35
G0 X97.299 Y108.549
G0 X96.827 Y108.08
G0 X74.928 Y61.262
G0 X74.295 Y58.647
G0 X75.007 Y55.915
G0 X75.487 Y56.055
G1 F1800 X74.79 Y58.456 E35.73588
G1 X74.746 Y58.645 E35.74508
G1 X75.349 Y61.133 E35.86642
G1 X75.417 Y61.314 E35.87558
G1 X77.24 Y63.19 E35.99956
G1 X77.393 Y63.307 E36.00869
G1 X79.813 Y63.98 E36.12774
G1 X79.994 Y63.999 E36.13636
G1 X82.462 Y63.373 E36.25704
G1 X82.667 Y63.246 E36.26847
G1 X84.538 Y61.401 E36.39301
G1 X85.256 Y58.783 E36.52167
G1 X84.577 Y56.163 E36.64995
G1 X82.624 Y54.196 E36.78133
G1 X80.002 Y53.493 E36.90999
G1 X77.554 Y54.097 E37.02949
G1 X75.487 Y56.055 E37.16444
G0 F3600 X75.432 Y56.247
G0 X74.788 Y55.629
;TYPE:SKIN
G1 F1800 X74.025 Y58.256 E37.29409
G1 X73.934 Y58.649 E37.31321
G1 X74.592 Y61.366 E37.44571
G1 X74.735 Y61.746 E37.46495
G1 X76.714 Y63.782 E37.59952
G1 X77.034 Y64.027 E37.61862
G1 X79.665 Y64.758 E37.74804
G1 X80.052 Y64.8 E37.76649
G1 X82.774 Y64.109 E37.8996
G1 X83.159 Y63.87 E37.92107
G1 X85.244 Y61.814 E38.05986
G1 X86.074 Y58.788 E38.20858
G1 X85.288 Y55.758 E38.35694
G1 X83.035 Y53.489 E38.50849
G1 X80.01 Y52.677 E38.65694
G1 X77.163 Y53.38 E38.79592
G1 X74.788 Y55.629 E38.95095
G0 F3600 X77.337 Y53.699
G0 X79.739 Y53.106
G0 X87.66 Y52.243
G1 F1800 X88.277 Y54.053 E39.04158
G1 X88.865 Y55.862 E39.13174
G1 X89.429 Y57.687 E39.22227
G1 X89.968 Y59.516 E39.31264
G1 X90.494 Y61.394 E39.40508
G1 X90.974 Y63.202 E39.49374
G1 X91.442 Y65.056 E39.58437
G1 X91.887 Y66.907 E39.67459
G1 X92.286 Y68.668 E39.76017
G1 X92.709 Y70.641 E39.85581
G1 X93.089 Y72.519 E39.94662
G1 X93.437 Y74.346 E40.03477
G1 X93.783 Y76.277 E40.12775
G1 X94.084 Y78.067 E40.21378
G1 X94.396 Y80.065 E40.30962
G1 X94.672 Y81.959 E40.40034
G1 X94.928 Y83.853 E40.49092
G1 X95.154 Y85.677 E40.57803
G1 X95.378 Y87.652 E40.67224
G1 X95.575 Y89.555 E40.76292
G1 X95.754 Y91.458 E40.85351
G1 X95.912 Y93.364 E40.94416
G1 X96.045 Y95.163 E41.02965
G1 X96.171 Y97.181 E41.12548
G1 X96.274 Y99.091 E41.21614
G1 X96.357 Y101.004 E41.30689
G1 X96.423 Y102.915 E41.39752
G1 X96.47 Y104.828 E41.48822
G1 X96.499 Y106.74 E41.57885
G1 X96.505 Y107.76 E41.62719
G1 X3.495 Y107.76 E46.03547
G1 X3.497 Y107.008 E46.07111
G1 X3.525 Y105.031 E46.16482
G1 X3.57 Y103.127 E46.25508
G1 X3.633 Y101.22 E46.34552
G1 X3.714 Y99.313 E46.43598
G1 X3.814 Y97.414 E46.52611
G1 X3.939 Y95.379 E46.62274
G1 X4.068 Y93.612 E46.70671
G1 X4.224 Y91.708 E46.79726
G1 X4.398 Y89.815 E46.88736
G1 X4.593 Y87.92 E46.97765
G1 X4.806 Y86.022 E47.06817
G1 X5.057 Y83.973 E47.16601
G1 X5.287 Y82.247 E47.24854
G1 X5.559 Y80.362 E47.3388
G1 X5.876 Y78.311 E47.43716
G1 X6.16 Y76.601 E47.51932
G1 X6.493 Y74.724 E47.60967
G1 X6.866 Y72.744 E47.70517
G1 X7.219 Y70.984 E47.79024
G1 X7.612 Y69.124 E47.88035
G1 X8.03 Y67.265 E47.97065
G1 X8.468 Y65.412 E48.0609
G1 X8.928 Y63.568 E48.15097
G1 X9.416 Y61.726 E48.24129
G1 X9.924 Y59.888 E48.33167
G1 X10.455 Y58.063 E48.42175
G1 X11.011 Y56.247 E48.51177
G1 X11.592 Y54.438 E48.60182
G1 X12.201 Y52.638 E48.69188
G1 X12.939 Y50.565 E48.79617
G1 X13.607 Y48.78 E48.88651
G1 X14.299 Y47.019 E48.97618
G1 X15.029 Y45.255 E49.06666
G1 X15.776 Y43.522 E49.15611
G1 X16.567 Y41.784 E49.24661
G1 X17.355 Y40.131 E49.3334
G1 X18.231 Y38.388 E49.42586
G1 X19.12 Y36.704 E49.51611
G1 X20.041 Y35.049 E49.60588
G1 X20.996 Y33.421 E49.69534
G1 X21.995 Y31.811 E49.78514
G1 X23.026 Y30.238 E49.87428
G1 X24.104 Y28.689 E49.96373
G1 X25.233 Y27.163 E50.05369
G1 X26.396 Y25.689 E50.14268
G1 X27.623 Y24.232 E50.23296
G1 X28.866 Y22.863 E50.3206
G1 X30.194 Y21.505 E50.41063
G1 X31.551 Y20.226 E50.49901
G1 X33.074 Y18.92 E50.5941
G1 X34.552 Y17.772 E50.6828
G1 X36.057 Y16.724 E50.76972
G1 X37.681 Y15.725 E50.86008
G1 X39.293 Y14.861 E50.94677
G1 X40.993 Y14.089 E51.03526
G1 X42.71 Y13.448 E51.12212
G1 X44.472 Y12.935 E51.2091
G1 X46.29 Y12.553 E51.29715
G1 X48.019 Y12.333 E51.37976
G1 X49.812 Y12.249 E51.46483
G1 X51.677 Y12.312 E51.55328
G1 X53.592 Y12.533 E51.64464
G1 X55.388 Y12.898 E51.7315
G1 X57.166 Y13.407 E51.81916
G1 X58.905 Y14.046 E51.90697
G1 X60.584 Y14.801 E51.99422
G1 X62.24 Y15.679 E52.08306
G1 X63.818 Y16.644 E52.17072
G1 X65.375 Y17.72 E52.26043
G1 X66.823 Y18.837 E52.3471
G1 X68.28 Y20.077 E52.43778
G1 X69.624 Y21.328 E52.5248
G1 X70.977 Y22.698 E52.61606
G1 X72.243 Y24.083 E52.705
G1 X73.465 Y25.519 E52.79437
G1 X74.637 Y26.995 E52.88369
G1 X75.764 Y28.507 E52.97307
G1 X76.849 Y30.057 E53.06275
G1 X77.897 Y31.644 E53.15288
G1 X78.898 Y33.249 E53.24254
G1 X79.867 Y34.891 E53.3329
G1 X80.776 Y36.513 E53.42103
G1 X81.68 Y38.219 E53.51253
G1 X82.551 Y39.947 E53.60425
G1 X83.37 Y41.652 E53.6939
G1 X84.161 Y43.384 E53.78414
G1 X84.919 Y45.129 E53.87431
G1 X85.647 Y46.889 E53.96459
G1 X86.347 Y48.663 E54.05497
G1 X87.018 Y50.446 E54.14527
G1 X87.66 Y52.243 E54.23571
G0 F3600 X65.77 Y18.252
G1 F1800 X73.997 Y26.479 E54.78715
G1 X74.067 Y26.549
G0 F3600 X75.74 Y28.788
G1 F1800 X63.811 Y16.859 E55.58672
G1 X63.741 Y16.789
G0 F3600 X62.334 Y15.948
G1 F1800 X76.998 Y30.612 E56.56961
G1 X77.068 Y30.682
G0 F3600 X78.048 Y32.227
G1 F1800 X61.099 Y15.279 E57.70563
G1 X61.029 Y15.209
G0 F3600 X59.983 Y14.729
G1 F1800 X78.954 Y33.7 E58.97721
G1 X79.024 Y33.77
G0 F3600 X79.763 Y35.074
G1 F1800 X58.954 Y14.265 E60.37199
G1 X58.884 Y14.195
G0 F3600 X58.045 Y13.922
G1 F1800 X80.485 Y36.362 E61.87609
G1 X80.555 Y36.432
G0 F3600 X81.136 Y37.578
G1 F1800 X57.151 Y13.594 E63.48371
G1 X57.081 Y13.524
G0 F3600 X56.354 Y13.362
G1 F1800 X81.748 Y38.756 E65.18581
G1 X81.818 Y38.826
G0 F3600 X82.323 Y39.897
G1 F1800 X55.562 Y13.135 E66.97957
G0 F3600 X54.829 Y12.969
G1 F1800 X82.852 Y40.991 E68.85785
G1 X82.922 Y41.061
G0 F3600 X83.36 Y42.065
G1 F1800 X54.119 Y12.824 E70.81781
G0 F3600 X53.424 Y12.694
G1 F1800 X83.836 Y43.107 E72.85629
G1 X83.906 Y43.177
G0 F3600 X84.284 Y44.12
G1 F1800 X52.785 Y12.621 E74.96759
G0 F3600 X52.146 Y12.548
G1 F1800 X84.717 Y45.119 E77.15075
G1 X84.787 Y45.189
G0 F3600 X85.12 Y46.087
G1 F1800 X51.52 Y12.488 E79.40284
G0 F3600 X50.934 Y12.467
G1 F1800 X85.516 Y47.05 E81.72082
G1 X85.586 Y47.12
G0 F3600 X85.885 Y47.984
G1 F1800 X50.348 Y12.447 E84.10279
G0 F3600 X49.766 Y12.431
G1 F1800 X86.25 Y48.914 E86.54819
G1 X86.32 Y48.984
G0 F3600 X86.59 Y49.821
G1 F1800 X49.226 Y12.457 E89.05261
G0 F3600 X48.686 Y12.482
G1 F1800 X86.925 Y50.721 E91.61568
G1 X86.995 Y50.791
G0 F3600 X87.24 Y51.601
G1 F1800 X48.146 Y12.508 E94.23602
G0 F3600 X47.635 Y12.563
G1 F1800 X87.549 Y52.477 E96.91136
