;FilamentType:PLA
;MachineType:MP Cadet
;Extruder0Temperature:190
;BedTemperature:40
;InfillDensity:10
;FLAVOR:Marlin
;TIME:15076
;FilamentUsed: 7899.11
;Layer height: 0.1
;MINX:2.7
;MINY:11.45
;MINZ:0.3
;MAXX:97.3
;MAXY:109.411
;MAXZ:25
;Generated with Cura_SteamEngine 4.3.0
M82 ;absolute extrusion mode
;(**** start.gcode for Cadet****)
M104 S150
G28 Z
G28 X Y; Home extruder
G1 X55 Y55 F1000
G1 Z10 F200
G29
G1 Z15 F100
M107 ; Turn off fan
G90 ; Absolute positioning
M82 ; Extruder in absolute mode
M109 S215
G92 E0 ; Reset extruder position
G1 X90 Y6 Z0.27 F2000
G1 X20 Y6 Z0.27 E15 F1000 
G92 E0 ; Reset extruder position

M203 Z5
G92 E0
G92 E0
G1 F2100 E-3
;LAYER_COUNT:248
;LAYER:0
M107
G0 F3600 X82.273 Y54.783 Z0.3
;TYPE:SUPPORT
G1 F2100 E0
G1 F1800 X83.939 Y56.43 E0.11103
G1 X84.572 Y58.682 E0.2219
G1 X83.939 Y61.075 E0.33922
G1 X82.234 Y62.73 E0.45184
G1 X79.974 Y63.315 E0.56249
G1 X77.722 Y62.708 E0.67303
G1 X76.065 Y61.067 E0.78356
G1 X75.433 Y58.815 E0.89442
G1 X75.995 Y56.551 E1.00498
G1 X77.601 Y54.865 E1.11534
G1 X80.008 Y54.183 E1.23391
G1 X82.273 Y54.783 E1.34497
G0 F3600 X82.677 Y55.407
G1 F1800 X82.677 Y62.077 E1.6611
G0 F3600 X83.433 Y61.341
G1 F1800 X76.57 Y61.341 E1.98637
G0 F3600 X77.343 Y62.107
G1 F1800 X77.343 Y55.368 E2.30577
G0 F3600 X76.734 Y56.007
G1 F1800 X83.285 Y56.007 E2.61626
G0 F3600 X84.404 Y58.674
G1 F1800 X75.633 Y58.674 E3.03197
G0 F3600 X80.01 Y54.349
G1 F1800 X80.01 Y63.14 E3.44862
G1 F2100 E0.44862
;MESH:CPAP Part R??ckwand_rechts.stl
G0 F3600 X77.596 Y54.62
G0 X77.247 Y53.386
G0 X79.994 Y52.528
G0 X79.994 Y52.628
;TYPE:WALL-INNER
G1 F2100 E3.44862
G1 F1800 X76.796 Y53.534 E3.60616
G1 X74.636 Y55.803 E3.75464
G1 X73.881 Y58.84 E3.90296
G1 X74.726 Y61.853 E4.05127
G1 X76.949 Y64.053 E4.19951
G1 X79.969 Y64.867 E4.34775
G1 X82.911 Y64.105 E4.49179
G1 X83.136 Y63.979 E4.50401
G1 X85.131 Y62.008 E4.63693
G1 X85.306 Y61.774 E4.65078
G1 X86.065 Y58.903 E4.79153
G1 X86.112 Y58.614 E4.8054
G1 X85.345 Y55.883 E4.93985
G1 X85.246 Y55.612 E4.95352
G1 X83.235 Y53.625 E5.08751
G1 X83.018 Y53.429 E5.10137
G1 X79.994 Y52.628 E5.24964
G0 F3600 X79.994 Y52.528
G0 X83.037 Y53.394
G0 X85.279 Y55.591
G0 X86.063 Y58.309
G0 X96.795 Y107.949
G0 X96.896 Y107.949
G1 F1800 X96.897 Y107.95 E5.24971
G1 X96.897 Y108.15 E5.25919
G1 X96.697 Y108.15 E5.26533
G1 X96.696 Y108.15 E5.26537
G1 X3.303 Y108.15 E9.6918
G1 X3.103 Y108.15 E9.70128
G1 X3.103 Y107.95 E9.70742
G1 X3.107 Y107.002 E9.75235
G1 X3.135 Y105.025 E9.84606
G1 X3.179 Y103.117 E9.93651
G1 X3.243 Y101.209 E10.02699
G1 X3.324 Y99.299 E10.1176
G1 X3.423 Y97.397 E10.20787
G1 X3.542 Y95.491 E10.29838
G1 X3.679 Y93.591 E10.38867
G1 X3.835 Y91.684 E10.47935
G1 X4.009 Y89.789 E10.56955
G1 X4.203 Y87.891 E10.65997
G1 X4.416 Y85.99 E10.75063
G1 X4.648 Y84.098 E10.84098
G1 X4.899 Y82.208 E10.93134
G1 X5.17 Y80.321 E11.0217
G1 X5.461 Y78.433 E11.11224
G1 X5.773 Y76.554 E11.20251
G1 X6.105 Y74.675 E11.29295
G1 X6.458 Y72.798 E11.38347
G1 X6.831 Y70.929 E11.4738
G1 X7.226 Y69.064 E11.56415
G1 X7.644 Y67.202 E11.6546
G1 X8.082 Y65.348 E11.74489
G1 X8.545 Y63.498 E11.83528
G1 X9.032 Y61.648 E11.92595
G1 X9.539 Y59.816 E12.01604
G1 X10.072 Y57.985 E12.10642
G1 X10.629 Y56.162 E12.19677
G1 X11.212 Y54.348 E12.28707
G1 X11.823 Y52.54 E12.37753
G1 X12.587 Y50.392 E12.48558
G1 X13.257 Y48.604 E12.57608
G1 X13.951 Y46.837 E12.66605
G1 X14.681 Y45.072 E12.75658
G1 X15.438 Y43.327 E12.84673
G1 X16.226 Y41.593 E12.93701
G1 X17.044 Y39.881 E13.02693
G1 X17.899 Y38.18 E13.11716
G1 X18.792 Y36.491 E13.20772
G1 X19.715 Y34.833 E13.29765
G1 X20.675 Y33.198 E13.38752
G1 X21.676 Y31.585 E13.47749
G1 X22.719 Y29.997 E13.56754
G1 X23.804 Y28.439 E13.65752
G1 X24.939 Y26.904 E13.748
G1 X26.106 Y25.427 E13.83722
G1 X27.342 Y23.963 E13.92803
G1 X28.599 Y22.578 E14.01668
G1 X29.932 Y21.215 E14.10704
G1 X31.301 Y19.927 E14.19612
G1 X32.844 Y18.604 E14.29246
G1 X34.341 Y17.443 E14.38224
G1 X35.859 Y16.387 E14.46989
G1 X37.472 Y15.395 E14.55964
G1 X39.138 Y14.503 E14.6492
G1 X40.837 Y13.731 E14.73765
G1 X42.593 Y13.077 E14.82646
G1 X44.391 Y12.553 E14.91523
G1 X46.216 Y12.17 E15.00361
G1 X48.001 Y11.943 E15.08889
G1 X49.807 Y11.859 E15.17458
G1 X51.71 Y11.922 E15.26482
G1 X53.645 Y12.146 E15.35715
G1 X55.482 Y12.519 E15.44599
G1 X57.287 Y13.036 E15.53498
G1 X59.045 Y13.682 E15.62375
G1 X60.767 Y14.456 E15.71323
G1 X62.423 Y15.334 E15.80206
G1 X64.031 Y16.317 E15.89139
G1 X65.582 Y17.388 E15.98072
G1 X67.076 Y18.54 E16.07014
G1 X68.533 Y19.78 E16.16082
G1 X69.901 Y21.053 E16.24938
G1 X71.26 Y22.429 E16.34105
G1 X72.536 Y23.825 E16.43069
G1 X73.771 Y25.277 E16.52103
G1 X74.949 Y26.761 E16.61083
G1 X76.084 Y28.283 E16.70082
G1 X77.175 Y29.842 E16.791
G1 X78.226 Y31.433 E16.88138
G1 X79.234 Y33.05 E16.97169
G1 X80.207 Y34.7 E17.06248
G1 X81.135 Y36.357 E17.15249
G1 X82.029 Y38.043 E17.24294
G1 X82.9 Y39.771 E17.33465
G1 X83.725 Y41.49 E17.42502
G1 X84.518 Y43.228 E17.51556
G1 X85.279 Y44.98 E17.6061
G1 X86.01 Y46.746 E17.69669
G1 X86.712 Y48.526 E17.78737
G1 X87.385 Y50.315 E17.87797
G1 X88.029 Y52.117 E17.96866
G1 X88.648 Y53.932 E18.05955
G1 X89.238 Y55.747 E18.15001
G1 X89.803 Y57.574 E18.24064
G1 X90.344 Y59.411 E18.33141
G1 X90.861 Y61.257 E18.42227
G1 X91.352 Y63.104 E18.51285
G1 X91.821 Y64.963 E18.60371
G1 X92.267 Y66.821 E18.69428
G1 X92.69 Y68.69 E18.7851
G1 X93.091 Y70.563 E18.87588
G1 X93.471 Y72.443 E18.96679
G1 X93.829 Y74.322 E19.05745
G1 X94.167 Y76.212 E19.14845
G1 X94.484 Y78.097 E19.23904
G1 X94.782 Y80.011 E19.33085
G1 X95.058 Y81.911 E19.42185
G1 X95.314 Y83.806 E19.51248
G1 X95.55 Y85.707 E19.60327
G1 X95.766 Y87.612 E19.69414
G1 X95.963 Y89.519 E19.785
G1 X96.142 Y91.426 E19.87578
G1 X96.3 Y93.336 E19.96662
G1 X96.441 Y95.248 E20.05748
G1 X96.562 Y97.16 E20.14829
G1 X96.664 Y99.074 E20.23913
G1 X96.747 Y100.99 E20.33003
G1 X96.813 Y102.906 E20.42089
G1 X96.86 Y104.823 E20.51177
G1 X96.889 Y106.739 E20.6026
G1 X96.896 Y107.949 E20.65994
G0 F3600 X97.298 Y108.349
;TYPE:WALL-OUTER
G1 F1800 X97.299 Y108.35 E20.66001
G1 X97.299 Y108.55 E20.66949
G1 X97.099 Y108.55 E20.67563
G1 X97.098 Y108.55 E20.67568
G1 X2.901 Y108.55 E25.14021
G1 X2.701 Y108.55 E25.14969
G1 X2.701 Y108.35 E25.15583
G1 X2.707 Y106.996 E25.22
G1 X2.735 Y105.016 E25.31385
G1 X2.779 Y103.104 E25.4045
G1 X2.843 Y101.192 E25.49517
G1 X2.924 Y99.282 E25.58578
G1 X3.024 Y97.372 E25.67643
G1 X3.143 Y95.462 E25.76713
G1 X3.28 Y93.558 E25.8576
G1 X3.436 Y91.651 E25.94829
G1 X3.611 Y89.748 E26.03886
G1 X3.805 Y87.846 E26.12948
G1 X4.018 Y85.945 E26.22014
G1 X4.251 Y84.045 E26.31086
G1 X4.503 Y82.151 E26.40142
G1 X4.775 Y80.26 E26.49197
G1 X5.067 Y78.368 E26.58271
G1 X5.379 Y76.484 E26.67322
G1 X5.712 Y74.601 E26.76385
G1 X6.066 Y72.72 E26.85456
G1 X6.44 Y70.846 E26.94513
G1 X6.836 Y68.976 E27.03573
G1 X7.255 Y67.11 E27.12637
G1 X7.694 Y65.251 E27.2169
G1 X8.158 Y63.396 E27.30753
G1 X8.645 Y61.546 E27.3982
G1 X9.155 Y59.704 E27.48879
G1 X9.689 Y57.868 E27.57941
G1 X10.248 Y56.04 E27.67001
G1 X10.833 Y54.22 E27.76062
G1 X11.446 Y52.406 E27.85137
G1 X12.212 Y50.252 E27.95972
G1 X12.882 Y48.464 E28.05022
G1 X13.582 Y46.684 E28.14088
G1 X14.311 Y44.919 E28.23138
G1 X15.074 Y43.161 E28.32221
G1 X15.865 Y41.421 E28.4128
G1 X16.687 Y39.701 E28.50316
G1 X17.545 Y37.993 E28.59375
G1 X18.438 Y36.304 E28.6843
G1 X19.37 Y34.631 E28.77507
G1 X20.335 Y32.987 E28.86542
G1 X21.342 Y31.365 E28.9559
G1 X22.391 Y29.768 E29.04646
G1 X23.482 Y28.201 E29.13696
G1 X24.617 Y26.666 E29.22744
G1 X25.8 Y25.169 E29.31787
G1 X27.036 Y23.705 E29.40868
G1 X28.313 Y22.298 E29.49874
G1 X29.646 Y20.935 E29.5891
G1 X31.041 Y19.623 E29.67986
G1 X32.584 Y18.3 E29.77619
G1 X34.096 Y17.127 E29.86689
G1 X35.65 Y16.046 E29.95661
G1 X37.283 Y15.042 E30.04747
G1 X38.949 Y14.15 E30.13703
G1 X40.693 Y13.358 E30.22782
G1 X42.463 Y12.698 E30.31735
G1 X44.288 Y12.166 E30.40745
G1 X46.157 Y11.774 E30.49796
G1 X47.97 Y11.544 E30.58457
G1 X49.801 Y11.458 E30.67145
G1 X51.733 Y11.522 E30.76307
G1 X53.713 Y11.752 E30.85754
G1 X55.581 Y12.131 E30.94788
G1 X57.401 Y12.652 E31.03761
G1 X59.204 Y13.315 E31.12866
G1 X60.931 Y14.091 E31.21839
G1 X62.628 Y14.99 E31.30941
G1 X64.246 Y15.979 E31.39929
G1 X65.826 Y17.071 E31.49032
G1 X67.33 Y18.23 E31.58031
G1 X68.792 Y19.475 E31.67133
G1 X70.186 Y20.772 E31.76157
G1 X71.545 Y22.148 E31.85323
G1 X72.841 Y23.566 E31.94428
G1 X74.076 Y25.018 E32.03463
G1 X75.27 Y26.522 E32.12564
G1 X76.412 Y28.054 E32.21621
G1 X77.509 Y29.622 E32.3069
G1 X78.565 Y31.221 E32.39772
G1 X79.579 Y32.847 E32.48855
G1 X80.552 Y34.497 E32.57933
G1 X81.488 Y36.17 E32.67019
G1 X82.386 Y37.863 E32.76102
G1 X83.261 Y39.598 E32.85312
G1 X84.089 Y41.324 E32.94385
G1 X84.885 Y43.069 E33.03476
G1 X85.649 Y44.827 E33.12561
G1 X86.382 Y46.599 E33.21649
G1 X87.086 Y48.385 E33.30748
G1 X87.761 Y50.18 E33.39837
G1 X88.408 Y51.988 E33.48939
G1 X89.027 Y53.803 E33.58027
G1 X89.62 Y55.629 E33.67127
G1 X90.187 Y57.461 E33.76216
G1 X90.729 Y59.303 E33.85316
G1 X91.247 Y61.154 E33.94426
G1 X91.74 Y63.006 E34.0351
G1 X92.21 Y64.87 E34.12621
G1 X92.657 Y66.733 E34.21701
G1 X93.081 Y68.606 E34.30803
G1 X93.483 Y70.484 E34.39906
G1 X93.864 Y72.368 E34.49016
G1 X94.223 Y74.252 E34.58106
G1 X94.561 Y76.142 E34.67206
G1 X94.879 Y78.035 E34.76303
G1 X95.178 Y79.953 E34.85504
G1 X95.454 Y81.853 E34.94603
G1 X95.711 Y83.757 E35.03709
G1 X95.947 Y85.662 E35.12807
G1 X96.163 Y87.571 E35.21913
G1 X96.361 Y89.482 E35.31019
G1 X96.54 Y91.393 E35.40116
G1 X96.699 Y93.307 E35.49218
G1 X96.84 Y95.223 E35.58324
G1 X96.961 Y97.139 E35.67423
G1 X97.063 Y99.057 E35.76526
G1 X97.147 Y100.976 E35.8563
G1 X97.213 Y102.896 E35.94736
G1 X97.26 Y104.817 E36.03843
G1 X97.289 Y106.737 E36.12944
G1 X97.298 Y108.349 E36.20584
G0 F3600 X97.299 Y108.35
G0 X97.299 Y108.549
G0 X96.827 Y108.08
G0 X86.151 Y58.612
G0 X85.279 Y55.591
G0 X83.037 Y53.394
G0 X80.126 Y52.561
G0 X79.998 Y53.043
G1 F1800 X77.01 Y53.889 E36.35303
G1 X74.999 Y56.002 E36.49128
G1 X74.295 Y58.834 E36.62959
G1 X75.083 Y61.643 E36.76787
G1 X77.155 Y63.694 E36.90605
G1 X79.971 Y64.453 E37.04427
G1 X82.761 Y63.731 E37.18086
G1 X82.893 Y63.657 E37.18804
G1 X84.829 Y61.744 E37.31703
G1 X84.939 Y61.597 E37.32574
G1 X85.673 Y58.819 E37.46192
G1 X85.703 Y58.637 E37.47066
G1 X84.964 Y56.006 E37.60019
G1 X84.901 Y55.833 E37.60891
G1 X82.96 Y53.916 E37.73821
G1 X82.822 Y53.791 E37.74703
G1 X79.998 Y53.043 E37.8855
G0 F3600 X79.806 Y53.097
G0 X79.99 Y52.224
;TYPE:SKIN
G1 F1800 X76.587 Y53.187 E38.05312
G1 X74.283 Y55.608 E38.21152
G1 X73.477 Y58.846 E38.36967
G1 X74.379 Y62.058 E38.52779
G1 X76.748 Y64.402 E38.68575
G1 X79.967 Y65.271 E38.84377
G1 X83.057 Y64.47 E38.99507
G1 X83.372 Y64.293 E39.01219
G1 X85.426 Y62.265 E39.149
G1 X85.663 Y61.947 E39.1678
G1 X86.447 Y58.985 E39.31302
G1 X86.511 Y58.591 E39.33193
G1 X85.716 Y55.764 E39.47112
G1 X85.582 Y55.396 E39.48968
G1 X83.503 Y53.342 E39.6282
G1 X83.209 Y53.076 E39.64699
G1 X79.99 Y52.224 E39.80481
G0 F3600 X87.018 Y50.446
G1 F1800 X87.66 Y52.243 E39.89525
G1 X88.277 Y54.053 E39.98588
G1 X88.865 Y55.862 E40.07604
G1 X89.429 Y57.687 E40.16657
G1 X89.968 Y59.516 E40.25694
G1 X90.485 Y61.36 E40.34771
G1 X90.974 Y63.202 E40.43804
G1 X91.442 Y65.056 E40.52867
G1 X91.887 Y66.907 E40.6189
G1 X92.286 Y68.668 E40.70448
G1 X92.709 Y70.641 E40.80011
G1 X93.089 Y72.519 E40.89092
G1 X93.437 Y74.346 E40.97907
G1 X93.783 Y76.277 E41.07205
G1 X94.081 Y78.047 E41.15712
G1 X94.396 Y80.067 E41.25402
G1 X94.672 Y81.963 E41.34483
G1 X94.928 Y83.854 E41.43527
G1 X95.154 Y85.677 E41.52234
G1 X95.378 Y87.653 E41.61659
G1 X95.575 Y89.556 E41.70727
G1 X95.754 Y91.458 E41.79781
G1 X95.912 Y93.365 E41.8885
G1 X96.045 Y95.169 E41.97424
G1 X96.172 Y97.181 E42.06979
G1 X96.274 Y99.091 E42.16044
G1 X96.357 Y101.004 E42.2512
G1 X96.423 Y102.916 E42.34187
G1 X96.47 Y104.829 E42.43257
G1 X96.499 Y106.741 E42.5232
G1 X96.505 Y107.76 E42.57149
G1 X3.495 Y107.76 E46.97977
G1 X3.497 Y107.008 E47.01541
G1 X3.525 Y105.034 E47.10898
G1 X3.569 Y103.13 E47.19924
G1 X3.633 Y101.225 E47.28958
G1 X3.714 Y99.319 E47.38
G1 X3.813 Y97.421 E47.47008
G1 X3.931 Y95.517 E47.56049
G1 X4.068 Y93.621 E47.65059
G1 X4.223 Y91.719 E47.74104
G1 X4.397 Y89.828 E47.83104
G1 X4.591 Y87.934 E47.92128
G1 X4.804 Y86.037 E48.01175
G1 X5.055 Y83.99 E48.1095
G1 X5.285 Y82.263 E48.19207
G1 X5.556 Y80.38 E48.28224
G1 X5.847 Y78.492 E48.37278
G1 X6.157 Y76.622 E48.46262
G1 X6.489 Y74.747 E48.55287
G1 X6.862 Y72.761 E48.64864
G1 X7.213 Y71.009 E48.73333
G1 X7.606 Y69.15 E48.82338
G1 X8.024 Y67.292 E48.91364
G1 X8.461 Y65.441 E49.00379
G1 X8.922 Y63.597 E49.09387
G1 X9.408 Y61.752 E49.1843
G1 X9.913 Y59.925 E49.27414
G1 X10.444 Y58.099 E49.36427
G1 X11 Y56.281 E49.45438
G1 X11.581 Y54.473 E49.54438
G1 X12.19 Y52.671 E49.63453
G1 X12.952 Y50.529 E49.74229
G1 X13.62 Y48.746 E49.83253
G1 X14.312 Y46.986 E49.92216
G1 X15.04 Y45.225 E50.01248
G1 X15.793 Y43.489 E50.10216
G1 X16.581 Y41.755 E50.19244
G1 X17.369 Y40.104 E50.27914
G1 X18.244 Y38.362 E50.37154
G1 X19.133 Y36.68 E50.46171
G1 X20.054 Y35.026 E50.55143
G1 X21.009 Y33.399 E50.64085
G1 X22.002 Y31.799 E50.7301
G1 X23.039 Y30.22 E50.81963
G1 X24.118 Y28.671 E50.9091
G1 X25.245 Y27.146 E50.99898
G1 X26.404 Y25.679 E51.08759
G1 X27.636 Y24.22 E51.17809
G1 X28.878 Y22.851 E51.2657
G1 X30.205 Y21.494 E51.35566
G1 X31.562 Y20.217 E51.44398
G1 X33.091 Y18.906 E51.53943
G1 X34.573 Y17.757 E51.62831
G1 X36.064 Y16.719 E51.71442
G1 X37.667 Y15.733 E51.80362
G1 X39.311 Y14.853 E51.89199
G1 X40.999 Y14.086 E51.97987
G1 X42.715 Y13.447 E52.06666
G1 X44.476 Y12.934 E52.15359
G1 X46.295 Y12.552 E52.24168
G1 X48.019 Y12.333 E52.32405
G1 X49.812 Y12.249 E52.40912
G1 X51.677 Y12.312 E52.49757
G1 X53.592 Y12.533 E52.58893
G1 X55.388 Y12.898 E52.6758
G1 X57.166 Y13.407 E52.76345
G1 X58.905 Y14.046 E52.85126
G1 X60.584 Y14.801 E52.93851
G1 X62.24 Y15.679 E53.02735
G1 X63.818 Y16.644 E53.11502
G1 X65.375 Y17.72 E53.20472
G1 X66.823 Y18.837 E53.29139
G1 X68.28 Y20.077 E53.38207
G1 X69.624 Y21.328 E53.4691
G1 X70.977 Y22.698 E53.56036
G1 X72.243 Y24.083 E53.64929
G1 X73.465 Y25.519 E53.73866
G1 X74.637 Y26.995 E53.82799
G1 X75.764 Y28.507 E53.91737
G1 X76.849 Y30.057 E54.00704
G1 X77.897 Y31.644 E54.09718
G1 X78.898 Y33.249 E54.18683
G1 X79.867 Y34.891 E54.27719
G1 X80.776 Y36.513 E54.36532
G1 X81.68 Y38.219 E54.45683
G1 X82.551 Y39.947 E54.54854
G1 X83.37 Y41.652 E54.63819
G1 X84.161 Y43.384 E54.72844
G1 X84.919 Y45.129 E54.81861
G1 X85.647 Y46.889 E54.90888
G1 X86.347 Y48.663 E54.99927
G1 X87.018 Y50.446 E55.08956
G0 F3600 X65.77 Y18.252
G1 F1800 X73.997 Y26.479 E55.641
G1 X74.067 Y26.549
G0 F3600 X75.74 Y28.788
G1 F1800 X63.811 Y16.859 E56.44057
G1 X63.741 Y16.789
G0 F3600 X62.334 Y15.948
G1 F1800 X76.998 Y30.612 E57.42346
G1 X77.068 Y30.682
G0 F3600 X78.048 Y32.227
G1 F1800 X61.099 Y15.279 E58.55948
G1 X61.029 Y15.209
G0 F3600 X59.983 Y14.729
G1 F1800 X78.954 Y33.7 E59.83106
G1 X79.024 Y33.77
G0 F3600 X79.763 Y35.074
G1 F1800 X58.954 Y14.265 E61.22584
G1 X58.884 Y14.195
G0 F3600 X58.045 Y13.922
G1 F1800 X80.485 Y36.362 E62.72994
G1 X80.555 Y36.432
G0 F3600 X81.136 Y37.578
G1 F1800 X57.151 Y13.594 E64.33756
G1 X57.081 Y13.524
G0 F3600 X56.354 Y13.362
G1 F1800 X81.748 Y38.756 E66.03966
G1 X81.818 Y38.826
G0 F3600 X82.323 Y39.897
G1 F1800 X55.562 Y13.135 E67.83342
G0 F3600 X54.829 Y12.969
G1 F1800 X82.852 Y40.991 E69.7117
G1 X82.922 Y41.061
G0 F3600 X83.36 Y42.065
G1 F1800 X54.119 Y12.824 E71.67166
G0 F3600 X53.424 Y12.694
G1 F1800 X83.836 Y43.107 E73.71014
G1 X83.906 Y43.177
G0 F3600 X84.284 Y44.12
G1 F1800 X52.785 Y12.621 E75.82144
G0 F3600 X52.146 Y12.548
G1 F1800 X84.717 Y45.119 E78.0046
G1 X84.787 Y45.189
G0 F3600 X85.12 Y46.087
G1 F1800 X51.52 Y12.488 E80.25669
G0 F3600 X50.934 Y12.467
G1 F1800 X85.516 Y47.05 E82.57468
G1 X85.586 Y47.12
G0 F3600 X85.885 Y47.984
G1 F1800 X50.348 Y12.447 E84.95664
G0 F3600 X49.766 Y12.431
G1 F1800 X86.25 Y48.914 E87.40204
G1 X86.32 Y48.984
G0 F3600 X86.59 Y49.821
G1 F1800 X49.226 Y12.457 E89.90646
G0 F3600 X48.686 Y12.482
G1 F1800 X86.925 Y50.721 E92.46953
G1 X86.995 Y50.791
G0 F3600 X87.24 Y51.601
G1 F1800 X48.146 Y12.508 E95.08987
G0 F3600 X47.635 Y12.563
